(Generated by PartKam Version 0.05)

G20 G90 G40

(profile 1)
G0 Z0.2
T0 M6
G17
M3
G0 X14.5287 Y29.6536
G1 Z-0.14 F15
G3 X13.0306 Y29.5622 I0.2669 J-16.6993 F16
G3 X11.6268 Y29.3451 I1.5796 J-14.8632
G3 X10.7532 Y29.1386 I2.8687 J-14.083
G3 X10.2508 Y28.9932 I3.7423 J-13.8764
G3 X10.1774 Y28.9703 I4.0787 J-13.1939
G3 X8.9428 Y28.5154 I4.1521 J-13.1709
G3 X7.6896 Y27.9083 I5.3866 J-12.7161
G3 X6.4795 Y27.1647 I6.9102 J-12.602
G3 X5.347 Y26.3073 I8.445 J-12.3326
G3 X4.2391 Y25.2948 I10.7018 J-12.8222
G3 X3.2266 Y24.1869 I11.8097 J-11.8097
G3 X2.3692 Y23.0543 I11.4752 J-9.5776
G3 X1.6256 Y21.8442 I11.8584 J-8.1203
G3 X1.0185 Y20.591 I12.1089 J-6.6398
G3 X0.5407 Y19.2831 I12.7161 J-5.3866
G3 X0.1888 Y17.907 I13.7311 J-4.2447
G3 X-0.0283 Y16.5032 I14.6461 J-2.9834
G3 X-0.1197 Y15.0052 I16.6079 J-1.765
G3 X-0.1197 Y15.0032 I0.125 J-0.002
G3 X0.0053 Y14.8782 I0.125 J0
G1 X1.0986 Y14.8782
G1 X1.0986 Y14.6557
G1 X0.0053 Y14.6557
G3 X-0.1197 Y14.5307 I0 J-0.125
G3 X-0.1197 Y14.5287 I0.125 J0
G3 X-0.0283 Y13.0306 I16.6993 J0.2669
G3 X0.1888 Y11.6268 I14.8632 J1.5796
G3 X0.5407 Y10.2508 I14.083 J2.8687
G3 X1.0185 Y8.9428 I13.1939 J4.0787
G3 X1.6256 Y7.6896 I12.7161 J5.3866
G3 X2.3692 Y6.4795 I12.602 J6.9102
G3 X3.2266 Y5.347 I12.3326 J8.445
G3 X4.2391 Y4.2391 I12.8222 J10.7018
G3 X5.347 Y3.2266 I11.8097 J11.8097
G3 X5.5593 Y3.0526 I9.5776 J11.4752
G3 X6.0343 Y2.6862 I9.3653 J11.6491
G3 X6.4795 Y2.3692 I8.8902 J12.0156
G3 X7.6897 Y1.6256 I8.1203 J11.8584
G3 X8.9428 Y1.0185 I6.6398 J12.1089
G3 X10.2508 Y0.5407 I5.3866 J12.716
G3 X11.6268 Y0.1888 I4.2447 J13.7311
G3 X13.0306 Y-0.0283 I2.9834 J14.6461
G3 X14.5287 Y-0.1197 I1.765 J16.6079
G3 X14.6557 Y0.0053 I0.002 J0.125
G1 X14.6557 Y1.0986
G1 X14.8782 Y1.0986
G1 X14.8782 Y0.0053
G3 X15.0052 Y-0.1197 I0.125 J0
G3 X16.5032 Y-0.0283 I-0.2669 J16.6993
G3 X17.907 Y0.1888 I-1.5796 J14.8632
G3 X19.2831 Y0.5407 I-2.8687 J14.083
G3 X20.591 Y1.0185 I-4.0787 J13.1939
G3 X21.8442 Y1.6256 I-5.3866 J12.7161
G3 X23.0543 Y2.3692 I-6.9102 J12.602
G3 X24.1869 Y3.2266 I-8.445 J12.3326
G3 X25.2948 Y4.2391 I-10.7018 J12.8222
G3 X26.3073 Y5.347 I-11.8097 J11.8097
G3 X26.6354 Y5.7543 I-11.4752 J9.5776
G3 X26.9939 Y6.2354 I-11.8033 J9.1702
G3 X27.1647 Y6.4795 I-12.1618 J8.6891
G3 X27.9083 Y7.6896 I-11.8584 J8.1203
G3 X28.5154 Y8.9428 I-12.1089 J6.6398
G3 X28.9932 Y10.2508 I-12.7161 J5.3866
G3 X29.3451 Y11.6268 I-13.7311 J4.2447
G3 X29.5622 Y13.0306 I-14.6461 J2.9834
G3 X29.6536 Y14.5287 I-16.6079 J1.765
G3 X29.6536 Y14.5307 I-0.125 J0.002
G3 X29.5286 Y14.6557 I-0.125 J0
G1 X28.4352 Y14.6557
G1 X28.4352 Y14.8782
G1 X29.5286 Y14.8782
G3 X29.6536 Y15.0032 I0 J0.125
G3 X29.6536 Y15.0052 I-0.125 J0
G3 X29.5622 Y16.5032 I-16.6993 J-0.2669
G3 X29.3451 Y17.907 I-14.8632 J-1.5796
G3 X28.9932 Y19.2831 I-14.083 J-2.8687
G3 X28.5154 Y20.591 I-13.1939 J-4.0787
G3 X27.9083 Y21.8442 I-12.716 J-5.3866
G3 X27.1647 Y23.0543 I-12.602 J-6.9102
G3 X26.3073 Y24.1869 I-12.3326 J-8.445
G3 X25.2948 Y25.2948 I-12.8222 J-10.7018
G3 X24.1869 Y26.3073 I-11.8097 J-11.8097
G3 X23.0543 Y27.1647 I-9.5776 J-11.4752
G3 X21.8442 Y27.9083 I-8.1203 J-11.8584
G3 X20.591 Y28.5154 I-6.6398 J-12.1089
G3 X19.2831 Y28.9932 I-5.3866 J-12.7161
G3 X17.907 Y29.3451 I-4.2447 J-13.7311
G3 X16.5032 Y29.5622 I-2.9834 J-14.6461
G3 X15.0052 Y29.6536 I-1.765 J-16.6079
G3 X14.8782 Y29.5286 I-0.002 J-0.125
G1 X14.8782 Y28.4352
G1 X14.6557 Y28.4352
G1 X14.6557 Y29.5286
G3 X14.5287 Y29.6536 I-0.125 J0
G1 Z-0.28 F15
G3 X13.0306 Y29.5622 I0.2669 J-16.6993 F16
G3 X11.6268 Y29.3451 I1.5796 J-14.8632
G3 X10.7532 Y29.1386 I2.8687 J-14.083
G3 X10.2508 Y28.9932 I3.7423 J-13.8764
G3 X10.1774 Y28.9703 I4.0787 J-13.1939
G3 X8.9428 Y28.5154 I4.1521 J-13.1709
G3 X7.6896 Y27.9083 I5.3866 J-12.7161
G3 X6.4795 Y27.1647 I6.9102 J-12.602
G3 X5.347 Y26.3073 I8.445 J-12.3326
G3 X4.2391 Y25.2948 I10.7018 J-12.8222
G3 X3.2266 Y24.1869 I11.8097 J-11.8097
G3 X2.3692 Y23.0543 I11.4752 J-9.5776
G3 X1.6256 Y21.8442 I11.8584 J-8.1203
G3 X1.0185 Y20.591 I12.1089 J-6.6398
G3 X0.5407 Y19.2831 I12.7161 J-5.3866
G3 X0.1888 Y17.907 I13.7311 J-4.2447
G3 X-0.0283 Y16.5032 I14.6461 J-2.9834
G3 X-0.1197 Y15.0052 I16.6079 J-1.765
G3 X-0.1197 Y15.0032 I0.125 J-0.002
G3 X0.0053 Y14.8782 I0.125 J0
G1 X1.0986 Y14.8782
G1 X1.0986 Y14.6557
G1 X0.0053 Y14.6557
G3 X-0.1197 Y14.5307 I0 J-0.125
G3 X-0.1197 Y14.5287 I0.125 J0
G3 X-0.0283 Y13.0306 I16.6993 J0.2669
G3 X0.1888 Y11.6268 I14.8632 J1.5796
G3 X0.5407 Y10.2508 I14.083 J2.8687
G3 X1.0185 Y8.9428 I13.1939 J4.0787
G3 X1.6256 Y7.6896 I12.7161 J5.3866
G3 X2.3692 Y6.4795 I12.602 J6.9102
G3 X3.2266 Y5.347 I12.3326 J8.445
G3 X4.2391 Y4.2391 I12.8222 J10.7018
G3 X5.347 Y3.2266 I11.8097 J11.8097
G3 X5.5593 Y3.0526 I9.5776 J11.4752
G3 X6.0343 Y2.6862 I9.3653 J11.6491
G3 X6.4795 Y2.3692 I8.8902 J12.0156
G3 X7.6897 Y1.6256 I8.1203 J11.8584
G3 X8.9428 Y1.0185 I6.6398 J12.1089
G3 X10.2508 Y0.5407 I5.3866 J12.716
G3 X11.6268 Y0.1888 I4.2447 J13.7311
G3 X13.0306 Y-0.0283 I2.9834 J14.6461
G3 X14.5287 Y-0.1197 I1.765 J16.6079
G3 X14.6557 Y0.0053 I0.002 J0.125
G1 X14.6557 Y1.0986
G1 X14.8782 Y1.0986
G1 X14.8782 Y0.0053
G3 X15.0052 Y-0.1197 I0.125 J0
G3 X16.5032 Y-0.0283 I-0.2669 J16.6993
G3 X17.907 Y0.1888 I-1.5796 J14.8632
G3 X19.2831 Y0.5407 I-2.8687 J14.083
G3 X20.591 Y1.0185 I-4.0787 J13.1939
G3 X21.8442 Y1.6256 I-5.3866 J12.7161
G3 X23.0543 Y2.3692 I-6.9102 J12.602
G3 X24.1869 Y3.2266 I-8.445 J12.3326
G3 X25.2948 Y4.2391 I-10.7018 J12.8222
G3 X26.3073 Y5.347 I-11.8097 J11.8097
G3 X26.6354 Y5.7543 I-11.4752 J9.5776
G3 X26.9939 Y6.2354 I-11.8033 J9.1702
G3 X27.1647 Y6.4795 I-12.1618 J8.6891
G3 X27.9083 Y7.6896 I-11.8584 J8.1203
G3 X28.5154 Y8.9428 I-12.1089 J6.6398
G3 X28.9932 Y10.2508 I-12.7161 J5.3866
G3 X29.3451 Y11.6268 I-13.7311 J4.2447
G3 X29.5622 Y13.0306 I-14.6461 J2.9834
G3 X29.6536 Y14.5287 I-16.6079 J1.765
G3 X29.6536 Y14.5307 I-0.125 J0.002
G3 X29.5286 Y14.6557 I-0.125 J0
G1 X28.4352 Y14.6557
G1 X28.4352 Y14.8782
G1 X29.5286 Y14.8782
G3 X29.6536 Y15.0032 I0 J0.125
G3 X29.6536 Y15.0052 I-0.125 J0
G3 X29.5622 Y16.5032 I-16.6993 J-0.2669
G3 X29.3451 Y17.907 I-14.8632 J-1.5796
G3 X28.9932 Y19.2831 I-14.083 J-2.8687
G3 X28.5154 Y20.591 I-13.1939 J-4.0787
G3 X27.9083 Y21.8442 I-12.716 J-5.3866
G3 X27.1647 Y23.0543 I-12.602 J-6.9102
G3 X26.3073 Y24.1869 I-12.3326 J-8.445
G3 X25.2948 Y25.2948 I-12.8222 J-10.7018
G3 X24.1869 Y26.3073 I-11.8097 J-11.8097
G3 X23.0543 Y27.1647 I-9.5776 J-11.4752
G3 X21.8442 Y27.9083 I-8.1203 J-11.8584
G3 X20.591 Y28.5154 I-6.6398 J-12.1089
G3 X19.2831 Y28.9932 I-5.3866 J-12.7161
G3 X17.907 Y29.3451 I-4.2447 J-13.7311
G3 X16.5032 Y29.5622 I-2.9834 J-14.6461
G3 X15.0052 Y29.6536 I-1.765 J-16.6079
G3 X14.8782 Y29.5286 I-0.002 J-0.125
G1 X14.8782 Y28.4352
G1 X14.6557 Y28.4352
G1 X14.6557 Y29.5286
G3 X14.5287 Y29.6536 I-0.125 J0
G1 Z-0.42 F15
G3 X13.0306 Y29.5622 I0.2669 J-16.6993 F16
G3 X11.6268 Y29.3451 I1.5796 J-14.8632
G3 X10.7532 Y29.1386 I2.8687 J-14.083
G3 X10.2508 Y28.9932 I3.7423 J-13.8764
G3 X10.1774 Y28.9703 I4.0787 J-13.1939
G3 X8.9428 Y28.5154 I4.1521 J-13.1709
G3 X7.6896 Y27.9083 I5.3866 J-12.7161
G3 X6.4795 Y27.1647 I6.9102 J-12.602
G3 X5.347 Y26.3073 I8.445 J-12.3326
G3 X4.2391 Y25.2948 I10.7018 J-12.8222
G3 X3.2266 Y24.1869 I11.8097 J-11.8097
G3 X2.3692 Y23.0543 I11.4752 J-9.5776
G3 X1.6256 Y21.8442 I11.8584 J-8.1203
G3 X1.0185 Y20.591 I12.1089 J-6.6398
G3 X0.5407 Y19.2831 I12.7161 J-5.3866
G3 X0.1888 Y17.907 I13.7311 J-4.2447
G3 X-0.0283 Y16.5032 I14.6461 J-2.9834
G3 X-0.1197 Y15.0052 I16.6079 J-1.765
G3 X-0.1197 Y15.0032 I0.125 J-0.002
G3 X0.0053 Y14.8782 I0.125 J0
G1 X1.0986 Y14.8782
G1 X1.0986 Y14.6557
G1 X0.0053 Y14.6557
G3 X-0.1197 Y14.5307 I0 J-0.125
G3 X-0.1197 Y14.5287 I0.125 J0
G3 X-0.0283 Y13.0306 I16.6993 J0.2669
G3 X0.1888 Y11.6268 I14.8632 J1.5796
G3 X0.5407 Y10.2508 I14.083 J2.8687
G3 X1.0185 Y8.9428 I13.1939 J4.0787
G3 X1.6256 Y7.6896 I12.7161 J5.3866
G3 X2.3692 Y6.4795 I12.602 J6.9102
G3 X3.2266 Y5.347 I12.3326 J8.445
G3 X4.2391 Y4.2391 I12.8222 J10.7018
G3 X5.347 Y3.2266 I11.8097 J11.8097
G3 X5.5593 Y3.0526 I9.5776 J11.4752
G3 X6.0343 Y2.6862 I9.3653 J11.6491
G3 X6.4795 Y2.3692 I8.8902 J12.0156
G3 X7.6897 Y1.6256 I8.1203 J11.8584
G3 X8.9428 Y1.0185 I6.6398 J12.1089
G3 X10.2508 Y0.5407 I5.3866 J12.716
G3 X11.6268 Y0.1888 I4.2447 J13.7311
G3 X13.0306 Y-0.0283 I2.9834 J14.6461
G3 X14.5287 Y-0.1197 I1.765 J16.6079
G3 X14.6557 Y0.0053 I0.002 J0.125
G1 X14.6557 Y1.0986
G1 X14.8782 Y1.0986
G1 X14.8782 Y0.0053
G3 X15.0052 Y-0.1197 I0.125 J0
G3 X16.5032 Y-0.0283 I-0.2669 J16.6993
G3 X17.907 Y0.1888 I-1.5796 J14.8632
G3 X19.2831 Y0.5407 I-2.8687 J14.083
G3 X20.591 Y1.0185 I-4.0787 J13.1939
G3 X21.8442 Y1.6256 I-5.3866 J12.7161
G3 X23.0543 Y2.3692 I-6.9102 J12.602
G3 X24.1869 Y3.2266 I-8.445 J12.3326
G3 X25.2948 Y4.2391 I-10.7018 J12.8222
G3 X26.3073 Y5.347 I-11.8097 J11.8097
G3 X26.6354 Y5.7543 I-11.4752 J9.5776
G3 X26.9939 Y6.2354 I-11.8033 J9.1702
G3 X27.1647 Y6.4795 I-12.1618 J8.6891
G3 X27.9083 Y7.6896 I-11.8584 J8.1203
G3 X28.5154 Y8.9428 I-12.1089 J6.6398
G3 X28.9932 Y10.2508 I-12.7161 J5.3866
G3 X29.3451 Y11.6268 I-13.7311 J4.2447
G3 X29.5622 Y13.0306 I-14.6461 J2.9834
G3 X29.6536 Y14.5287 I-16.6079 J1.765
G3 X29.6536 Y14.5307 I-0.125 J0.002
G3 X29.5286 Y14.6557 I-0.125 J0
G1 X28.4352 Y14.6557
G1 X28.4352 Y14.8782
G1 X29.5286 Y14.8782
G3 X29.6536 Y15.0032 I0 J0.125
G3 X29.6536 Y15.0052 I-0.125 J0
G3 X29.5622 Y16.5032 I-16.6993 J-0.2669
G3 X29.3451 Y17.907 I-14.8632 J-1.5796
G3 X28.9932 Y19.2831 I-14.083 J-2.8687
G3 X28.5154 Y20.591 I-13.1939 J-4.0787
G3 X27.9083 Y21.8442 I-12.716 J-5.3866
G3 X27.1647 Y23.0543 I-12.602 J-6.9102
G3 X26.3073 Y24.1869 I-12.3326 J-8.445
G3 X25.2948 Y25.2948 I-12.8222 J-10.7018
G3 X24.1869 Y26.3073 I-11.8097 J-11.8097
G3 X23.0543 Y27.1647 I-9.5776 J-11.4752
G3 X21.8442 Y27.9083 I-8.1203 J-11.8584
G3 X20.591 Y28.5154 I-6.6398 J-12.1089
G3 X19.2831 Y28.9932 I-5.3866 J-12.7161
G3 X17.907 Y29.3451 I-4.2447 J-13.7311
G3 X16.5032 Y29.5622 I-2.9834 J-14.6461
G3 X15.0052 Y29.6536 I-1.765 J-16.6079
G3 X14.8782 Y29.5286 I-0.002 J-0.125
G1 X14.8782 Y28.4352
G1 X14.6557 Y28.4352
G1 X14.6557 Y29.5286
G3 X14.5287 Y29.6536 I-0.125 J0
G1 Z-0.56 F15
G3 X13.0306 Y29.5622 I0.2669 J-16.6993 F16
G3 X11.6268 Y29.3451 I1.5796 J-14.8632
G3 X10.7532 Y29.1386 I2.8687 J-14.083
G1 Z-0.55 F15
G3 X10.2508 Y28.9932 I3.7423 J-13.8764 F16
G3 X10.1774 Y28.9703 I4.0787 J-13.1939
G1 Z-0.56 F15
G3 X8.9428 Y28.5154 I4.1521 J-13.1709 F16
G3 X7.6896 Y27.9083 I5.3866 J-12.7161
G3 X6.4795 Y27.1647 I6.9102 J-12.602
G3 X5.347 Y26.3073 I8.445 J-12.3326
G3 X4.2391 Y25.2948 I10.7018 J-12.8222
G3 X3.2266 Y24.1869 I11.8097 J-11.8097
G3 X2.3692 Y23.0543 I11.4752 J-9.5776
G3 X1.6256 Y21.8442 I11.8584 J-8.1203
G3 X1.0185 Y20.591 I12.1089 J-6.6398
G3 X0.5407 Y19.2831 I12.7161 J-5.3866
G3 X0.1888 Y17.907 I13.7311 J-4.2447
G3 X-0.0283 Y16.5032 I14.6461 J-2.9834
G3 X-0.1197 Y15.0052 I16.6079 J-1.765
G3 X-0.1197 Y15.0032 I0.125 J-0.002
G3 X0.0053 Y14.8782 I0.125 J0
G1 X1.0986 Y14.8782
G1 X1.0986 Y14.6557
G1 X0.0053 Y14.6557
G3 X-0.1197 Y14.5307 I0 J-0.125
G3 X-0.1197 Y14.5287 I0.125 J0
G3 X-0.0283 Y13.0306 I16.6993 J0.2669
G3 X0.1888 Y11.6268 I14.8632 J1.5796
G3 X0.5407 Y10.2508 I14.083 J2.8687
G3 X1.0185 Y8.9428 I13.1939 J4.0787
G3 X1.6256 Y7.6896 I12.7161 J5.3866
G3 X2.3692 Y6.4795 I12.602 J6.9102
G3 X3.2266 Y5.347 I12.3326 J8.445
G3 X4.2391 Y4.2391 I12.8222 J10.7018
G3 X5.347 Y3.2266 I11.8097 J11.8097
G3 X5.5593 Y3.0526 I9.5776 J11.4752
G1 Z-0.55 F15
G3 X6.0343 Y2.6862 I9.3653 J11.6491 F16
G1 Z-0.56 F15
G3 X6.4795 Y2.3692 I8.8902 J12.0156 F16
G3 X7.6897 Y1.6256 I8.1203 J11.8584
G3 X8.9428 Y1.0185 I6.6398 J12.1089
G3 X10.2508 Y0.5407 I5.3866 J12.716
G3 X11.6268 Y0.1888 I4.2447 J13.7311
G3 X13.0306 Y-0.0283 I2.9834 J14.6461
G3 X14.5287 Y-0.1197 I1.765 J16.6079
G3 X14.6557 Y0.0053 I0.002 J0.125
G1 X14.6557 Y1.0986
G1 X14.8782 Y1.0986
G1 X14.8782 Y0.0053
G3 X15.0052 Y-0.1197 I0.125 J0
G3 X16.5032 Y-0.0283 I-0.2669 J16.6993
G3 X17.907 Y0.1888 I-1.5796 J14.8632
G3 X19.2831 Y0.5407 I-2.8687 J14.083
G3 X20.591 Y1.0185 I-4.0787 J13.1939
G3 X21.8442 Y1.6256 I-5.3866 J12.7161
G3 X23.0543 Y2.3692 I-6.9102 J12.602
G3 X24.1869 Y3.2266 I-8.445 J12.3326
G3 X25.2948 Y4.2391 I-10.7018 J12.8222
G3 X26.3073 Y5.347 I-11.8097 J11.8097
G3 X26.6354 Y5.7543 I-11.4752 J9.5776
G1 Z-0.55 F15
G3 X26.9939 Y6.2354 I-11.8033 J9.1702 F16
G1 Z-0.56 F15
G3 X27.1647 Y6.4795 I-12.1618 J8.6891 F16
G3 X27.9083 Y7.6896 I-11.8584 J8.1203
G3 X28.5154 Y8.9428 I-12.1089 J6.6398
G3 X28.9932 Y10.2508 I-12.7161 J5.3866
G3 X29.3451 Y11.6268 I-13.7311 J4.2447
G3 X29.5622 Y13.0306 I-14.6461 J2.9834
G3 X29.6536 Y14.5287 I-16.6079 J1.765
G3 X29.6536 Y14.5307 I-0.125 J0.002
G3 X29.5286 Y14.6557 I-0.125 J0
G1 X28.4352 Y14.6557
G1 X28.4352 Y14.8782
G1 X29.5286 Y14.8782
G3 X29.6536 Y15.0032 I0 J0.125
G3 X29.6536 Y15.0052 I-0.125 J0
G3 X29.5622 Y16.5032 I-16.6993 J-0.2669
G3 X29.3451 Y17.907 I-14.8632 J-1.5796
G3 X28.9932 Y19.2831 I-14.083 J-2.8687
G3 X28.5154 Y20.591 I-13.1939 J-4.0787
G3 X27.9083 Y21.8442 I-12.716 J-5.3866
G3 X27.1647 Y23.0543 I-12.602 J-6.9102
G3 X26.3073 Y24.1869 I-12.3326 J-8.445
G3 X25.2948 Y25.2948 I-12.8222 J-10.7018
G3 X24.1869 Y26.3073 I-11.8097 J-11.8097
G3 X23.0543 Y27.1647 I-9.5776 J-11.4752
G3 X21.8442 Y27.9083 I-8.1203 J-11.8584
G3 X20.591 Y28.5154 I-6.6398 J-12.1089
G3 X19.2831 Y28.9932 I-5.3866 J-12.7161
G3 X17.907 Y29.3451 I-4.2447 J-13.7311
G3 X16.5032 Y29.5622 I-2.9834 J-14.6461
G3 X15.0052 Y29.6536 I-1.765 J-16.6079
G3 X14.8782 Y29.5286 I-0.002 J-0.125
G1 X14.8782 Y28.4352
G1 X14.6557 Y28.4352
G1 X14.6557 Y29.5286
G3 X14.5287 Y29.6536 I-0.125 J0
G1 Z-0.7 F15
G3 X13.0306 Y29.5622 I0.2669 J-16.6993 F16
G3 X11.6268 Y29.3451 I1.5796 J-14.8632
G3 X10.7532 Y29.1386 I2.8687 J-14.083
G1 Z-0.55 F15
G3 X10.2508 Y28.9932 I3.7423 J-13.8764 F16
G3 X10.1774 Y28.9703 I4.0787 J-13.1939
G1 Z-0.7 F15
G3 X8.9428 Y28.5154 I4.1521 J-13.1709 F16
G3 X7.6896 Y27.9083 I5.3866 J-12.7161
G3 X6.4795 Y27.1647 I6.9102 J-12.602
G3 X5.347 Y26.3073 I8.445 J-12.3326
G3 X4.2391 Y25.2948 I10.7018 J-12.8222
G3 X3.2266 Y24.1869 I11.8097 J-11.8097
G3 X2.3692 Y23.0543 I11.4752 J-9.5776
G3 X1.6256 Y21.8442 I11.8584 J-8.1203
G3 X1.0185 Y20.591 I12.1089 J-6.6398
G3 X0.5407 Y19.2831 I12.7161 J-5.3866
G3 X0.1888 Y17.907 I13.7311 J-4.2447
G3 X-0.0283 Y16.5032 I14.6461 J-2.9834
G3 X-0.1197 Y15.0052 I16.6079 J-1.765
G3 X-0.1197 Y15.0032 I0.125 J-0.002
G3 X0.0053 Y14.8782 I0.125 J0
G1 X1.0986 Y14.8782
G1 X1.0986 Y14.6557
G1 X0.0053 Y14.6557
G3 X-0.1197 Y14.5307 I0 J-0.125
G3 X-0.1197 Y14.5287 I0.125 J0
G3 X-0.0283 Y13.0306 I16.6993 J0.2669
G3 X0.1888 Y11.6268 I14.8632 J1.5796
G3 X0.5407 Y10.2508 I14.083 J2.8687
G3 X1.0185 Y8.9428 I13.1939 J4.0787
G3 X1.6256 Y7.6896 I12.7161 J5.3866
G3 X2.3692 Y6.4795 I12.602 J6.9102
G3 X3.2266 Y5.347 I12.3326 J8.445
G3 X4.2391 Y4.2391 I12.8222 J10.7018
G3 X5.347 Y3.2266 I11.8097 J11.8097
G3 X5.5593 Y3.0526 I9.5776 J11.4752
G1 Z-0.55 F15
G3 X6.0343 Y2.6862 I9.3653 J11.6491 F16
G1 Z-0.7 F15
G3 X6.4795 Y2.3692 I8.8902 J12.0156 F16
G3 X7.6897 Y1.6256 I8.1203 J11.8584
G3 X8.9428 Y1.0185 I6.6398 J12.1089
G3 X10.2508 Y0.5407 I5.3866 J12.716
G3 X11.6268 Y0.1888 I4.2447 J13.7311
G3 X13.0306 Y-0.0283 I2.9834 J14.6461
G3 X14.5287 Y-0.1197 I1.765 J16.6079
G3 X14.6557 Y0.0053 I0.002 J0.125
G1 X14.6557 Y1.0986
G1 X14.8782 Y1.0986
G1 X14.8782 Y0.0053
G3 X15.0052 Y-0.1197 I0.125 J0
G3 X16.5032 Y-0.0283 I-0.2669 J16.6993
G3 X17.907 Y0.1888 I-1.5796 J14.8632
G3 X19.2831 Y0.5407 I-2.8687 J14.083
G3 X20.591 Y1.0185 I-4.0787 J13.1939
G3 X21.8442 Y1.6256 I-5.3866 J12.7161
G3 X23.0543 Y2.3692 I-6.9102 J12.602
G3 X24.1869 Y3.2266 I-8.445 J12.3326
G3 X25.2948 Y4.2391 I-10.7018 J12.8222
G3 X26.3073 Y5.347 I-11.8097 J11.8097
G3 X26.6354 Y5.7543 I-11.4752 J9.5776
G1 Z-0.55 F15
G3 X26.9939 Y6.2354 I-11.8033 J9.1702 F16
G1 Z-0.7 F15
G3 X27.1647 Y6.4795 I-12.1618 J8.6891 F16
G3 X27.9083 Y7.6896 I-11.8584 J8.1203
G3 X28.5154 Y8.9428 I-12.1089 J6.6398
G3 X28.9932 Y10.2508 I-12.7161 J5.3866
G3 X29.3451 Y11.6268 I-13.7311 J4.2447
G3 X29.5622 Y13.0306 I-14.6461 J2.9834
G3 X29.6536 Y14.5287 I-16.6079 J1.765
G3 X29.6536 Y14.5307 I-0.125 J0.002
G3 X29.5286 Y14.6557 I-0.125 J0
G1 X28.4352 Y14.6557
G1 X28.4352 Y14.8782
G1 X29.5286 Y14.8782
G3 X29.6536 Y15.0032 I0 J0.125
G3 X29.6536 Y15.0052 I-0.125 J0
G3 X29.5622 Y16.5032 I-16.6993 J-0.2669
G3 X29.3451 Y17.907 I-14.8632 J-1.5796
G3 X28.9932 Y19.2831 I-14.083 J-2.8687
G3 X28.5154 Y20.591 I-13.1939 J-4.0787
G3 X27.9083 Y21.8442 I-12.716 J-5.3866
G3 X27.1647 Y23.0543 I-12.602 J-6.9102
G3 X26.3073 Y24.1869 I-12.3326 J-8.445
G3 X25.2948 Y25.2948 I-12.8222 J-10.7018
G3 X24.1869 Y26.3073 I-11.8097 J-11.8097
G3 X23.0543 Y27.1647 I-9.5776 J-11.4752
G3 X21.8442 Y27.9083 I-8.1203 J-11.8584
G3 X20.591 Y28.5154 I-6.6398 J-12.1089
G3 X19.2831 Y28.9932 I-5.3866 J-12.7161
G3 X17.907 Y29.3451 I-4.2447 J-13.7311
G3 X16.5032 Y29.5622 I-2.9834 J-14.6461
G3 X15.0052 Y29.6536 I-1.765 J-16.6079
G3 X14.8782 Y29.5286 I-0.002 J-0.125
G1 X14.8782 Y28.4352
G1 X14.6557 Y28.4352
G1 X14.6557 Y29.5286
G3 X14.5287 Y29.6536 I-0.125 J0
G1 Z-0.83 F15
G3 X13.0306 Y29.5622 I0.2669 J-16.6993 F16
G3 X11.6268 Y29.3451 I1.5796 J-14.8632
G3 X10.7532 Y29.1386 I2.8687 J-14.083
G1 Z-0.55 F15
G3 X10.2508 Y28.9932 I3.7423 J-13.8764 F16
G3 X10.1774 Y28.9703 I4.0787 J-13.1939
G1 Z-0.83 F15
G3 X8.9428 Y28.5154 I4.1521 J-13.1709 F16
G3 X7.6896 Y27.9083 I5.3866 J-12.7161
G3 X6.4795 Y27.1647 I6.9102 J-12.602
G3 X5.347 Y26.3073 I8.445 J-12.3326
G3 X4.2391 Y25.2948 I10.7018 J-12.8222
G3 X3.2266 Y24.1869 I11.8097 J-11.8097
G3 X2.3692 Y23.0543 I11.4752 J-9.5776
G3 X1.6256 Y21.8442 I11.8584 J-8.1203
G3 X1.0185 Y20.591 I12.1089 J-6.6398
G3 X0.5407 Y19.2831 I12.7161 J-5.3866
G3 X0.1888 Y17.907 I13.7311 J-4.2447
G3 X-0.0283 Y16.5032 I14.6461 J-2.9834
G3 X-0.1197 Y15.0052 I16.6079 J-1.765
G3 X-0.1197 Y15.0032 I0.125 J-0.002
G3 X0.0053 Y14.8782 I0.125 J0
G1 X1.0986 Y14.8782
G1 X1.0986 Y14.6557
G1 X0.0053 Y14.6557
G3 X-0.1197 Y14.5307 I0 J-0.125
G3 X-0.1197 Y14.5287 I0.125 J0
G3 X-0.0283 Y13.0306 I16.6993 J0.2669
G3 X0.1888 Y11.6268 I14.8632 J1.5796
G3 X0.5407 Y10.2508 I14.083 J2.8687
G3 X1.0185 Y8.9428 I13.1939 J4.0787
G3 X1.6256 Y7.6896 I12.7161 J5.3866
G3 X2.3692 Y6.4795 I12.602 J6.9102
G3 X3.2266 Y5.347 I12.3326 J8.445
G3 X4.2391 Y4.2391 I12.8222 J10.7018
G3 X5.347 Y3.2266 I11.8097 J11.8097
G3 X5.5593 Y3.0526 I9.5776 J11.4752
G1 Z-0.55 F15
G3 X6.0343 Y2.6862 I9.3653 J11.6491 F16
G1 Z-0.83 F15
G3 X6.4795 Y2.3692 I8.8902 J12.0156 F16
G3 X7.6897 Y1.6256 I8.1203 J11.8584
G3 X8.9428 Y1.0185 I6.6398 J12.1089
G3 X10.2508 Y0.5407 I5.3866 J12.716
G3 X11.6268 Y0.1888 I4.2447 J13.7311
G3 X13.0306 Y-0.0283 I2.9834 J14.6461
G3 X14.5287 Y-0.1197 I1.765 J16.6079
G3 X14.6557 Y0.0053 I0.002 J0.125
G1 X14.6557 Y1.0986
G1 X14.8782 Y1.0986
G1 X14.8782 Y0.0053
G3 X15.0052 Y-0.1197 I0.125 J0
G3 X16.5032 Y-0.0283 I-0.2669 J16.6993
G3 X17.907 Y0.1888 I-1.5796 J14.8632
G3 X19.2831 Y0.5407 I-2.8687 J14.083
G3 X20.591 Y1.0185 I-4.0787 J13.1939
G3 X21.8442 Y1.6256 I-5.3866 J12.7161
G3 X23.0543 Y2.3692 I-6.9102 J12.602
G3 X24.1869 Y3.2266 I-8.445 J12.3326
G3 X25.2948 Y4.2391 I-10.7018 J12.8222
G3 X26.3073 Y5.347 I-11.8097 J11.8097
G3 X26.6354 Y5.7543 I-11.4752 J9.5776
G1 Z-0.55 F15
G3 X26.9939 Y6.2354 I-11.8033 J9.1702 F16
G1 Z-0.83 F15
G3 X27.1647 Y6.4795 I-12.1618 J8.6891 F16
G3 X27.9083 Y7.6896 I-11.8584 J8.1203
G3 X28.5154 Y8.9428 I-12.1089 J6.6398
G3 X28.9932 Y10.2508 I-12.7161 J5.3866
G3 X29.3451 Y11.6268 I-13.7311 J4.2447
G3 X29.5622 Y13.0306 I-14.6461 J2.9834
G3 X29.6536 Y14.5287 I-16.6079 J1.765
G3 X29.6536 Y14.5307 I-0.125 J0.002
G3 X29.5286 Y14.6557 I-0.125 J0
G1 X28.4352 Y14.6557
G1 X28.4352 Y14.8782
G1 X29.5286 Y14.8782
G3 X29.6536 Y15.0032 I0 J0.125
G3 X29.6536 Y15.0052 I-0.125 J0
G3 X29.5622 Y16.5032 I-16.6993 J-0.2669
G3 X29.3451 Y17.907 I-14.8632 J-1.5796
G3 X28.9932 Y19.2831 I-14.083 J-2.8687
G3 X28.5154 Y20.591 I-13.1939 J-4.0787
G3 X27.9083 Y21.8442 I-12.716 J-5.3866
G3 X27.1647 Y23.0543 I-12.602 J-6.9102
G3 X26.3073 Y24.1869 I-12.3326 J-8.445
G3 X25.2948 Y25.2948 I-12.8222 J-10.7018
G3 X24.1869 Y26.3073 I-11.8097 J-11.8097
G3 X23.0543 Y27.1647 I-9.5776 J-11.4752
G3 X21.8442 Y27.9083 I-8.1203 J-11.8584
G3 X20.591 Y28.5154 I-6.6398 J-12.1089
G3 X19.2831 Y28.9932 I-5.3866 J-12.7161
G3 X17.907 Y29.3451 I-4.2447 J-13.7311
G3 X16.5032 Y29.5622 I-2.9834 J-14.6461
G3 X15.0052 Y29.6536 I-1.765 J-16.6079
G3 X14.8782 Y29.5286 I-0.002 J-0.125
G1 X14.8782 Y28.4352
G1 X14.6557 Y28.4352
G1 X14.6557 Y29.5286
G3 X14.5287 Y29.6536 I-0.125 J0

(profile 2)
G0 Z0.2
G0 X20.8111 Y17.8149
G1 Z-0.14 F15
G3 X20.5145 Y18.3363 I-6.3366 J-3.2604 F16
G3 X20.2397 Y18.7432 I-6.04 J-3.7818
G3 X19.5335 Y19.5734 I-5.7652 J-4.1887
G3 X18.7483 Y20.2468 I-4.5645 J-4.5284
G3 X17.8652 Y20.7855 I-3.7793 J-5.2017
G3 X16.8574 Y21.2006 I-3.21 J-6.3623
G3 X15.798 Y21.4572 I-2.2021 J-6.7774
G3 X14.7669 Y21.5404 I-1.031 J-6.3465
G3 X13.7359 Y21.4572 I0 J-6.4297
G3 X12.6765 Y21.2006 I1.1427 J-7.034
G3 X11.6687 Y20.7855 I2.2021 J-6.7774
G3 X10.7856 Y20.2468 I2.8962 J-5.7404
G3 X10.0004 Y19.5734 I3.7793 J-5.2017
G3 X9.8339 Y19.3999 I5.059 J-5.0189
G3 X9.445 Y18.9433 I5.2254 J-4.8454
G3 X9.2941 Y18.7432 I5.6144 J-4.3888
G3 X8.7228 Y17.8149 I5.7652 J-4.1887
G3 X8.325 Y16.86 I5.7172 J-2.9418
G3 X8.0855 Y15.8538 I6.115 J-1.9869
G3 X8.0022 Y14.7669 I7.0429 J-1.0868
G1 X8.0022 Y14.7669
G1 X8.0022 Y14.7669
G3 X8.0855 Y13.6801 I7.1262 J0
G3 X8.325 Y12.6738 I6.3545 J0.9806
G3 X8.7228 Y11.719 I6.115 J1.9869
G3 X9.2941 Y10.7907 I6.3366 J3.2604
G3 X10.0004 Y9.9605 I5.7652 J4.1887
G3 X10.7856 Y9.2871 I4.5645 J4.5284
G3 X11.6687 Y8.7484 I3.7793 J5.2017
G3 X12.105 Y8.5464 I3.21 J6.3623
G3 X12.6669 Y8.3364 I2.7736 J6.5643
G3 X12.6765 Y8.3333 I2.2117 J6.7743
G3 X13.7359 Y8.0767 I2.2021 J6.7774
G3 X14.7669 Y7.9935 I1.031 J6.3465
G3 X15.798 Y8.0767 I0 J6.4297
G3 X16.8574 Y8.3333 I-1.1427 J7.034
G3 X17.8652 Y8.7484 I-2.2021 J6.7774
G3 X18.7483 Y9.2871 I-2.8962 J5.7404
G3 X19.5335 Y9.9605 I-3.7793 J5.2017
G3 X20.2397 Y10.7907 I-5.059 J5.0189
G3 X20.8111 Y11.719 I-5.7652 J4.1887
G3 X21.2089 Y12.6738 I-5.7172 J2.9418
G3 X21.4483 Y13.6801 I-6.115 J1.9869
G3 X21.5317 Y14.7669 I-7.0429 J1.0868
G1 X21.5317 Y14.7669
G1 X21.5317 Y14.7669
G3 X21.4483 Y15.8538 I-7.1262 J0
G3 X21.2089 Y16.86 I-6.3545 J-0.9806
G3 X20.8111 Y17.8149 I-6.115 J-1.9869
G1 Z-0.28 F15
G3 X20.5145 Y18.3363 I-6.3366 J-3.2604 F16
G3 X20.2397 Y18.7432 I-6.04 J-3.7818
G3 X19.5335 Y19.5734 I-5.7652 J-4.1887
G3 X18.7483 Y20.2468 I-4.5645 J-4.5284
G3 X17.8652 Y20.7855 I-3.7793 J-5.2017
G3 X16.8574 Y21.2006 I-3.21 J-6.3623
G3 X15.798 Y21.4572 I-2.2021 J-6.7774
G3 X14.7669 Y21.5404 I-1.031 J-6.3465
G3 X13.7359 Y21.4572 I0 J-6.4297
G3 X12.6765 Y21.2006 I1.1427 J-7.034
G3 X11.6687 Y20.7855 I2.2021 J-6.7774
G3 X10.7856 Y20.2468 I2.8962 J-5.7404
G3 X10.0004 Y19.5734 I3.7793 J-5.2017
G3 X9.8339 Y19.3999 I5.059 J-5.0189
G3 X9.445 Y18.9433 I5.2254 J-4.8454
G3 X9.2941 Y18.7432 I5.6144 J-4.3888
G3 X8.7228 Y17.8149 I5.7652 J-4.1887
G3 X8.325 Y16.86 I5.7172 J-2.9418
G3 X8.0855 Y15.8538 I6.115 J-1.9869
G3 X8.0022 Y14.7669 I7.0429 J-1.0868
G1 X8.0022 Y14.7669
G1 X8.0022 Y14.7669
G3 X8.0855 Y13.6801 I7.1262 J0
G3 X8.325 Y12.6738 I6.3545 J0.9806
G3 X8.7228 Y11.719 I6.115 J1.9869
G3 X9.2941 Y10.7907 I6.3366 J3.2604
G3 X10.0004 Y9.9605 I5.7652 J4.1887
G3 X10.7856 Y9.2871 I4.5645 J4.5284
G3 X11.6687 Y8.7484 I3.7793 J5.2017
G3 X12.105 Y8.5464 I3.21 J6.3623
G3 X12.6669 Y8.3364 I2.7736 J6.5643
G3 X12.6765 Y8.3333 I2.2117 J6.7743
G3 X13.7359 Y8.0767 I2.2021 J6.7774
G3 X14.7669 Y7.9935 I1.031 J6.3465
G3 X15.798 Y8.0767 I0 J6.4297
G3 X16.8574 Y8.3333 I-1.1427 J7.034
G3 X17.8652 Y8.7484 I-2.2021 J6.7774
G3 X18.7483 Y9.2871 I-2.8962 J5.7404
G3 X19.5335 Y9.9605 I-3.7793 J5.2017
G3 X20.2397 Y10.7907 I-5.059 J5.0189
G3 X20.8111 Y11.719 I-5.7652 J4.1887
G3 X21.2089 Y12.6738 I-5.7172 J2.9418
G3 X21.4483 Y13.6801 I-6.115 J1.9869
G3 X21.5317 Y14.7669 I-7.0429 J1.0868
G1 X21.5317 Y14.7669
G1 X21.5317 Y14.7669
G3 X21.4483 Y15.8538 I-7.1262 J0
G3 X21.2089 Y16.86 I-6.3545 J-0.9806
G3 X20.8111 Y17.8149 I-6.115 J-1.9869
G1 Z-0.42 F15
G3 X20.5145 Y18.3363 I-6.3366 J-3.2604 F16
G3 X20.2397 Y18.7432 I-6.04 J-3.7818
G3 X19.5335 Y19.5734 I-5.7652 J-4.1887
G3 X18.7483 Y20.2468 I-4.5645 J-4.5284
G3 X17.8652 Y20.7855 I-3.7793 J-5.2017
G3 X16.8574 Y21.2006 I-3.21 J-6.3623
G3 X15.798 Y21.4572 I-2.2021 J-6.7774
G3 X14.7669 Y21.5404 I-1.031 J-6.3465
G3 X13.7359 Y21.4572 I0 J-6.4297
G3 X12.6765 Y21.2006 I1.1427 J-7.034
G3 X11.6687 Y20.7855 I2.2021 J-6.7774
G3 X10.7856 Y20.2468 I2.8962 J-5.7404
G3 X10.0004 Y19.5734 I3.7793 J-5.2017
G3 X9.8339 Y19.3999 I5.059 J-5.0189
G3 X9.445 Y18.9433 I5.2254 J-4.8454
G3 X9.2941 Y18.7432 I5.6144 J-4.3888
G3 X8.7228 Y17.8149 I5.7652 J-4.1887
G3 X8.325 Y16.86 I5.7172 J-2.9418
G3 X8.0855 Y15.8538 I6.115 J-1.9869
G3 X8.0022 Y14.7669 I7.0429 J-1.0868
G1 X8.0022 Y14.7669
G1 X8.0022 Y14.7669
G3 X8.0855 Y13.6801 I7.1262 J0
G3 X8.325 Y12.6738 I6.3545 J0.9806
G3 X8.7228 Y11.719 I6.115 J1.9869
G3 X9.2941 Y10.7907 I6.3366 J3.2604
G3 X10.0004 Y9.9605 I5.7652 J4.1887
G3 X10.7856 Y9.2871 I4.5645 J4.5284
G3 X11.6687 Y8.7484 I3.7793 J5.2017
G3 X12.105 Y8.5464 I3.21 J6.3623
G3 X12.6669 Y8.3364 I2.7736 J6.5643
G3 X12.6765 Y8.3333 I2.2117 J6.7743
G3 X13.7359 Y8.0767 I2.2021 J6.7774
G3 X14.7669 Y7.9935 I1.031 J6.3465
G3 X15.798 Y8.0767 I0 J6.4297
G3 X16.8574 Y8.3333 I-1.1427 J7.034
G3 X17.8652 Y8.7484 I-2.2021 J6.7774
G3 X18.7483 Y9.2871 I-2.8962 J5.7404
G3 X19.5335 Y9.9605 I-3.7793 J5.2017
G3 X20.2397 Y10.7907 I-5.059 J5.0189
G3 X20.8111 Y11.719 I-5.7652 J4.1887
G3 X21.2089 Y12.6738 I-5.7172 J2.9418
G3 X21.4483 Y13.6801 I-6.115 J1.9869
G3 X21.5317 Y14.7669 I-7.0429 J1.0868
G1 X21.5317 Y14.7669
G1 X21.5317 Y14.7669
G3 X21.4483 Y15.8538 I-7.1262 J0
G3 X21.2089 Y16.86 I-6.3545 J-0.9806
G3 X20.8111 Y17.8149 I-6.115 J-1.9869
G1 Z-0.56 F15
G1 Z-0.55 F15
G3 X20.5145 Y18.3363 I-6.3366 J-3.2604 F16
G1 Z-0.56 F15
G3 X20.2397 Y18.7432 I-6.04 J-3.7818 F16
G3 X19.5335 Y19.5734 I-5.7652 J-4.1887
G3 X18.7483 Y20.2468 I-4.5645 J-4.5284
G3 X17.8652 Y20.7855 I-3.7793 J-5.2017
G3 X16.8574 Y21.2006 I-3.21 J-6.3623
G3 X15.798 Y21.4572 I-2.2021 J-6.7774
G3 X14.7669 Y21.5404 I-1.031 J-6.3465
G3 X13.7359 Y21.4572 I0 J-6.4297
G3 X12.6765 Y21.2006 I1.1427 J-7.034
G3 X11.6687 Y20.7855 I2.2021 J-6.7774
G3 X10.7856 Y20.2468 I2.8962 J-5.7404
G3 X10.0004 Y19.5734 I3.7793 J-5.2017
G3 X9.8339 Y19.3999 I5.059 J-5.0189
G1 Z-0.55 F15
G3 X9.445 Y18.9433 I5.2254 J-4.8454 F16
G1 Z-0.56 F15
G3 X9.2941 Y18.7432 I5.6144 J-4.3888 F16
G3 X8.7228 Y17.8149 I5.7652 J-4.1887
G3 X8.325 Y16.86 I5.7172 J-2.9418
G3 X8.0855 Y15.8538 I6.115 J-1.9869
G3 X8.0022 Y14.7669 I7.0429 J-1.0868
G1 X8.0022 Y14.7669
G1 X8.0022 Y14.7669
G3 X8.0855 Y13.6801 I7.1262 J0
G3 X8.325 Y12.6738 I6.3545 J0.9806
G3 X8.7228 Y11.719 I6.115 J1.9869
G3 X9.2941 Y10.7907 I6.3366 J3.2604
G3 X10.0004 Y9.9605 I5.7652 J4.1887
G3 X10.7856 Y9.2871 I4.5645 J4.5284
G3 X11.6687 Y8.7484 I3.7793 J5.2017
G3 X12.105 Y8.5464 I3.21 J6.3623
G1 Z-0.55 F15
G3 X12.6669 Y8.3364 I2.7736 J6.5643 F16
G1 Z-0.56 F15
G3 X12.6765 Y8.3333 I2.2117 J6.7743 F16
G3 X13.7359 Y8.0767 I2.2021 J6.7774
G3 X14.7669 Y7.9935 I1.031 J6.3465
G3 X15.798 Y8.0767 I0 J6.4297
G3 X16.8574 Y8.3333 I-1.1427 J7.034
G3 X17.8652 Y8.7484 I-2.2021 J6.7774
G3 X18.7483 Y9.2871 I-2.8962 J5.7404
G3 X19.5335 Y9.9605 I-3.7793 J5.2017
G3 X20.2397 Y10.7907 I-5.059 J5.0189
G3 X20.8111 Y11.719 I-5.7652 J4.1887
G3 X21.2089 Y12.6738 I-5.7172 J2.9418
G3 X21.4483 Y13.6801 I-6.115 J1.9869
G3 X21.5317 Y14.7669 I-7.0429 J1.0868
G1 X21.5317 Y14.7669
G1 X21.5317 Y14.7669
G3 X21.4483 Y15.8538 I-7.1262 J0
G3 X21.2089 Y16.86 I-6.3545 J-0.9806
G3 X20.8111 Y17.8149 I-6.115 J-1.9869
G1 Z-0.7 F15
G1 Z-0.55 F15
G3 X20.5145 Y18.3363 I-6.3366 J-3.2604 F16
G1 Z-0.7 F15
G3 X20.2397 Y18.7432 I-6.04 J-3.7818 F16
G3 X19.5335 Y19.5734 I-5.7652 J-4.1887
G3 X18.7483 Y20.2468 I-4.5645 J-4.5284
G3 X17.8652 Y20.7855 I-3.7793 J-5.2017
G3 X16.8574 Y21.2006 I-3.21 J-6.3623
G3 X15.798 Y21.4572 I-2.2021 J-6.7774
G3 X14.7669 Y21.5404 I-1.031 J-6.3465
G3 X13.7359 Y21.4572 I0 J-6.4297
G3 X12.6765 Y21.2006 I1.1427 J-7.034
G3 X11.6687 Y20.7855 I2.2021 J-6.7774
G3 X10.7856 Y20.2468 I2.8962 J-5.7404
G3 X10.0004 Y19.5734 I3.7793 J-5.2017
G3 X9.8339 Y19.3999 I5.059 J-5.0189
G1 Z-0.55 F15
G3 X9.445 Y18.9433 I5.2254 J-4.8454 F16
G1 Z-0.7 F15
G3 X9.2941 Y18.7432 I5.6144 J-4.3888 F16
G3 X8.7228 Y17.8149 I5.7652 J-4.1887
G3 X8.325 Y16.86 I5.7172 J-2.9418
G3 X8.0855 Y15.8538 I6.115 J-1.9869
G3 X8.0022 Y14.7669 I7.0429 J-1.0868
G1 X8.0022 Y14.7669
G1 X8.0022 Y14.7669
G3 X8.0855 Y13.6801 I7.1262 J0
G3 X8.325 Y12.6738 I6.3545 J0.9806
G3 X8.7228 Y11.719 I6.115 J1.9869
G3 X9.2941 Y10.7907 I6.3366 J3.2604
G3 X10.0004 Y9.9605 I5.7652 J4.1887
G3 X10.7856 Y9.2871 I4.5645 J4.5284
G3 X11.6687 Y8.7484 I3.7793 J5.2017
G3 X12.105 Y8.5464 I3.21 J6.3623
G1 Z-0.55 F15
G3 X12.6669 Y8.3364 I2.7736 J6.5643 F16
G1 Z-0.7 F15
G3 X12.6765 Y8.3333 I2.2117 J6.7743 F16
G3 X13.7359 Y8.0767 I2.2021 J6.7774
G3 X14.7669 Y7.9935 I1.031 J6.3465
G3 X15.798 Y8.0767 I0 J6.4297
G3 X16.8574 Y8.3333 I-1.1427 J7.034
G3 X17.8652 Y8.7484 I-2.2021 J6.7774
G3 X18.7483 Y9.2871 I-2.8962 J5.7404
G3 X19.5335 Y9.9605 I-3.7793 J5.2017
G3 X20.2397 Y10.7907 I-5.059 J5.0189
G3 X20.8111 Y11.719 I-5.7652 J4.1887
G3 X21.2089 Y12.6738 I-5.7172 J2.9418
G3 X21.4483 Y13.6801 I-6.115 J1.9869
G3 X21.5317 Y14.7669 I-7.0429 J1.0868
G1 X21.5317 Y14.7669
G1 X21.5317 Y14.7669
G3 X21.4483 Y15.8538 I-7.1262 J0
G3 X21.2089 Y16.86 I-6.3545 J-0.9806
G3 X20.8111 Y17.8149 I-6.115 J-1.9869
G1 Z-0.83 F15
G1 Z-0.55 F15
G3 X20.5145 Y18.3363 I-6.3366 J-3.2604 F16
G1 Z-0.83 F15
G3 X20.2397 Y18.7432 I-6.04 J-3.7818 F16
G3 X19.5335 Y19.5734 I-5.7652 J-4.1887
G3 X18.7483 Y20.2468 I-4.5645 J-4.5284
G3 X17.8652 Y20.7855 I-3.7793 J-5.2017
G3 X16.8574 Y21.2006 I-3.21 J-6.3623
G3 X15.798 Y21.4572 I-2.2021 J-6.7774
G3 X14.7669 Y21.5404 I-1.031 J-6.3465
G3 X13.7359 Y21.4572 I0 J-6.4297
G3 X12.6765 Y21.2006 I1.1427 J-7.034
G3 X11.6687 Y20.7855 I2.2021 J-6.7774
G3 X10.7856 Y20.2468 I2.8962 J-5.7404
G3 X10.0004 Y19.5734 I3.7793 J-5.2017
G3 X9.8339 Y19.3999 I5.059 J-5.0189
G1 Z-0.55 F15
G3 X9.445 Y18.9433 I5.2254 J-4.8454 F16
G1 Z-0.83 F15
G3 X9.2941 Y18.7432 I5.6144 J-4.3888 F16
G3 X8.7228 Y17.8149 I5.7652 J-4.1887
G3 X8.325 Y16.86 I5.7172 J-2.9418
G3 X8.0855 Y15.8538 I6.115 J-1.9869
G3 X8.0022 Y14.7669 I7.0429 J-1.0868
G1 X8.0022 Y14.7669
G1 X8.0022 Y14.7669
G3 X8.0855 Y13.6801 I7.1262 J0
G3 X8.325 Y12.6738 I6.3545 J0.9806
G3 X8.7228 Y11.719 I6.115 J1.9869
G3 X9.2941 Y10.7907 I6.3366 J3.2604
G3 X10.0004 Y9.9605 I5.7652 J4.1887
G3 X10.7856 Y9.2871 I4.5645 J4.5284
G3 X11.6687 Y8.7484 I3.7793 J5.2017
G3 X12.105 Y8.5464 I3.21 J6.3623
G1 Z-0.55 F15
G3 X12.6669 Y8.3364 I2.7736 J6.5643 F16
G1 Z-0.83 F15
G3 X12.6765 Y8.3333 I2.2117 J6.7743 F16
G3 X13.7359 Y8.0767 I2.2021 J6.7774
G3 X14.7669 Y7.9935 I1.031 J6.3465
G3 X15.798 Y8.0767 I0 J6.4297
G3 X16.8574 Y8.3333 I-1.1427 J7.034
G3 X17.8652 Y8.7484 I-2.2021 J6.7774
G3 X18.7483 Y9.2871 I-2.8962 J5.7404
G3 X19.5335 Y9.9605 I-3.7793 J5.2017
G3 X20.2397 Y10.7907 I-5.059 J5.0189
G3 X20.8111 Y11.719 I-5.7652 J4.1887
G3 X21.2089 Y12.6738 I-5.7172 J2.9418
G3 X21.4483 Y13.6801 I-6.115 J1.9869
G3 X21.5317 Y14.7669 I-7.0429 J1.0868
G1 X21.5317 Y14.7669
G1 X21.5317 Y14.7669
G3 X21.4483 Y15.8538 I-7.1262 J0
G3 X21.2089 Y16.86 I-6.3545 J-0.9806
G3 X20.8111 Y17.8149 I-6.115 J-1.9869

(profile 3)
G0 Z0.2
G0 X8.5169 Y14.8782
G1 Z-0.14 F15
G1 X8.2551 Y14.8782 F13
G3 X8.2541 Y14.7669 I6.5118 J-0.1112
G3 X8.2551 Y14.6557 I6.5128 J0
G1 X8.5169 Y14.6557
G2 X8.516 Y14.7669 I6.25 J0.1112
G2 X8.5169 Y14.8782 I6.251 J0
G1 Z-0.28 F15
G1 X8.2551 Y14.8782 F13
G3 X8.2541 Y14.7669 I6.5118 J-0.1112
G3 X8.2551 Y14.6557 I6.5128 J0
G1 X8.5169 Y14.6557
G2 X8.516 Y14.7669 I6.25 J0.1112
G2 X8.5169 Y14.8782 I6.251 J0
G1 Z-0.42 F15
G1 X8.2551 Y14.8782 F13
G3 X8.2541 Y14.7669 I6.5118 J-0.1112
G3 X8.2551 Y14.6557 I6.5128 J0
G1 X8.5169 Y14.6557
G2 X8.516 Y14.7669 I6.25 J0.1112
G2 X8.5169 Y14.8782 I6.251 J0
G1 Z-0.56 F15
G1 X8.2551 Y14.8782 F13
G3 X8.2541 Y14.7669 I6.5118 J-0.1112
G3 X8.2551 Y14.6557 I6.5128 J0
G1 X8.5169 Y14.6557
G2 X8.516 Y14.7669 I6.25 J0.1112
G2 X8.5169 Y14.8782 I6.251 J0
G1 Z-0.7 F15
G1 X8.2551 Y14.8782 F13
G3 X8.2541 Y14.7669 I6.5118 J-0.1112
G3 X8.2551 Y14.6557 I6.5128 J0
G1 X8.5169 Y14.6557
G2 X8.516 Y14.7669 I6.25 J0.1112
G2 X8.5169 Y14.8782 I6.251 J0
G1 Z-0.83 F15
G1 X8.2551 Y14.8782 F13
G3 X8.2541 Y14.7669 I6.5118 J-0.1112
G3 X8.2551 Y14.6557 I6.5128 J0
G1 X8.5169 Y14.6557
G2 X8.516 Y14.7669 I6.25 J0.1112
G2 X8.5169 Y14.8782 I6.251 J0
G0 Z0.2
G0 X14.6557 Y21.2788
G1 Z-0.14 F15
G1 X14.6557 Y21.0169 F13
G2 X14.7669 Y21.0179 I0.1112 J-6.25
G2 X14.8782 Y21.0169 I0 J-6.251
G1 X14.8782 Y21.2788
G3 X14.7669 Y21.2797 I-0.1112 J-6.5118
G3 X14.6557 Y21.2788 I0 J-6.5128
G1 Z-0.28 F15
G1 X14.6557 Y21.0169 F13
G2 X14.7669 Y21.0179 I0.1112 J-6.25
G2 X14.8782 Y21.0169 I0 J-6.251
G1 X14.8782 Y21.2788
G3 X14.7669 Y21.2797 I-0.1112 J-6.5118
G3 X14.6557 Y21.2788 I0 J-6.5128
G1 Z-0.42 F15
G1 X14.6557 Y21.0169 F13
G2 X14.7669 Y21.0179 I0.1112 J-6.25
G2 X14.8782 Y21.0169 I0 J-6.251
G1 X14.8782 Y21.2788
G3 X14.7669 Y21.2797 I-0.1112 J-6.5118
G3 X14.6557 Y21.2788 I0 J-6.5128
G1 Z-0.56 F15
G1 X14.6557 Y21.0169 F13
G2 X14.7669 Y21.0179 I0.1112 J-6.25
G2 X14.8782 Y21.0169 I0 J-6.251
G1 X14.8782 Y21.2788
G3 X14.7669 Y21.2797 I-0.1112 J-6.5118
G3 X14.6557 Y21.2788 I0 J-6.5128
G1 Z-0.7 F15
G1 X14.6557 Y21.0169 F13
G2 X14.7669 Y21.0179 I0.1112 J-6.25
G2 X14.8782 Y21.0169 I0 J-6.251
G1 X14.8782 Y21.2788
G3 X14.7669 Y21.2797 I-0.1112 J-6.5118
G3 X14.6557 Y21.2788 I0 J-6.5128
G1 Z-0.83 F15
G1 X14.6557 Y21.0169 F13
G2 X14.7669 Y21.0179 I0.1112 J-6.25
G2 X14.8782 Y21.0169 I0 J-6.251
G1 X14.8782 Y21.2788
G3 X14.7669 Y21.2797 I-0.1112 J-6.5118
G3 X14.6557 Y21.2788 I0 J-6.5128
G0 Z0.2
G0 X14.6557 Y8.5169
G1 Z-0.14 F15
G1 X14.6557 Y8.2551 F13
G3 X14.7669 Y8.2541 I0.1112 J6.5118
G3 X14.8782 Y8.2551 I0 J6.5128
G1 X14.8782 Y8.5169
G2 X14.7669 Y8.516 I-0.1112 J6.25
G2 X14.6557 Y8.5169 I0 J6.251
G1 Z-0.28 F15
G1 X14.6557 Y8.2551 F13
G3 X14.7669 Y8.2541 I0.1112 J6.5118
G3 X14.8782 Y8.2551 I0 J6.5128
G1 X14.8782 Y8.5169
G2 X14.7669 Y8.516 I-0.1112 J6.25
G2 X14.6557 Y8.5169 I0 J6.251
G1 Z-0.42 F15
G1 X14.6557 Y8.2551 F13
G3 X14.7669 Y8.2541 I0.1112 J6.5118
G3 X14.8782 Y8.2551 I0 J6.5128
G1 X14.8782 Y8.5169
G2 X14.7669 Y8.516 I-0.1112 J6.25
G2 X14.6557 Y8.5169 I0 J6.251
G1 Z-0.56 F15
G1 X14.6557 Y8.2551 F13
G3 X14.7669 Y8.2541 I0.1112 J6.5118
G3 X14.8782 Y8.2551 I0 J6.5128
G1 X14.8782 Y8.5169
G2 X14.7669 Y8.516 I-0.1112 J6.25
G2 X14.6557 Y8.5169 I0 J6.251
G1 Z-0.7 F15
G1 X14.6557 Y8.2551 F13
G3 X14.7669 Y8.2541 I0.1112 J6.5118
G3 X14.8782 Y8.2551 I0 J6.5128
G1 X14.8782 Y8.5169
G2 X14.7669 Y8.516 I-0.1112 J6.25
G2 X14.6557 Y8.5169 I0 J6.251
G1 Z-0.83 F15
G1 X14.6557 Y8.2551 F13
G3 X14.7669 Y8.2541 I0.1112 J6.5118
G3 X14.8782 Y8.2551 I0 J6.5128
G1 X14.8782 Y8.5169
G2 X14.7669 Y8.516 I-0.1112 J6.25
G2 X14.6557 Y8.5169 I0 J6.251
G0 Z0.2
G0 X21.2788 Y14.8782
G1 Z-0.14 F15
G1 X21.0169 Y14.8782 F13
G2 X21.0179 Y14.7669 I-6.25 J-0.1112
G2 X21.0169 Y14.6557 I-6.251 J0
G1 X21.2788 Y14.6557
G3 X21.2797 Y14.7669 I-6.5118 J0.1112
G3 X21.2788 Y14.8782 I-6.5128 J0
G1 Z-0.28 F15
G1 X21.0169 Y14.8782 F13
G2 X21.0179 Y14.7669 I-6.25 J-0.1112
G2 X21.0169 Y14.6557 I-6.251 J0
G1 X21.2788 Y14.6557
G3 X21.2797 Y14.7669 I-6.5118 J0.1112
G3 X21.2788 Y14.8782 I-6.5128 J0
G1 Z-0.42 F15
G1 X21.0169 Y14.8782 F13
G2 X21.0179 Y14.7669 I-6.25 J-0.1112
G2 X21.0169 Y14.6557 I-6.251 J0
G1 X21.2788 Y14.6557
G3 X21.2797 Y14.7669 I-6.5118 J0.1112
G3 X21.2788 Y14.8782 I-6.5128 J0
G1 Z-0.56 F15
G1 X21.0169 Y14.8782 F13
G2 X21.0179 Y14.7669 I-6.25 J-0.1112
G2 X21.0169 Y14.6557 I-6.251 J0
G1 X21.2788 Y14.6557
G3 X21.2797 Y14.7669 I-6.5118 J0.1112
G3 X21.2788 Y14.8782 I-6.5128 J0
G1 Z-0.7 F15
G1 X21.0169 Y14.8782 F13
G2 X21.0179 Y14.7669 I-6.25 J-0.1112
G2 X21.0169 Y14.6557 I-6.251 J0
G1 X21.2788 Y14.6557
G3 X21.2797 Y14.7669 I-6.5118 J0.1112
G3 X21.2788 Y14.8782 I-6.5128 J0
G1 Z-0.83 F15
G1 X21.0169 Y14.8782 F13
G2 X21.0179 Y14.7669 I-6.25 J-0.1112
G2 X21.0169 Y14.6557 I-6.251 J0
G1 X21.2788 Y14.6557
G3 X21.2797 Y14.7669 I-6.5118 J0.1112
G3 X21.2788 Y14.8782 I-6.5128 J0
G0 Z0.2
M5
M30
