(Generated by PartKam Version 0.05)

G20 G90 G40

(profile 1)
G0 Z0.2
T0 M6
G17
M3
G0 X25.5958 Y29.6578
G1 Z-0.14 F15
G1 X13.6194 Y29.6578 F16
G1 X12.9958 Y29.6578
G1 X0.0053 Y29.6578
G3 X-0.1197 Y29.5328 I0 J-0.125
G1 X-0.1197 Y28.3517
G3 X0.0053 Y28.2267 I0.125 J0
G1 X0.5889 Y28.2267
G1 X0.5889 Y23.9327
G3 X0.6514 Y23.8245 I0.125 J0
G1 X6.5732 Y20.4056
G1 X6.5732 Y15.0053
G3 X6.6982 Y14.8803 I0.125 J0
G1 X12.6756 Y14.8803
G1 X12.6756 Y14.6578
G1 X6.6982 Y14.6578
G3 X6.5732 Y14.5328 I0 J-0.125
G1 X6.5732 Y9.1326
G1 X0.6514 Y5.7136
G3 X0.5889 Y5.6054 I0.0625 J-0.1083
G1 X0.5889 Y1.3114
G1 X0.0053 Y1.3114
G3 X-0.1197 Y1.1864 I0 J-0.125
G1 X-0.1197 Y0.0053
G3 X0.0053 Y-0.1197 I0.125 J0
G1 X3.98 Y-0.1197
G1 X4.58 Y-0.1197
G1 X20.1626 Y-0.1197
G1 X20.8039 Y-0.1197
G1 X25.5958 Y-0.1197
G3 X25.7208 Y0.0053 I0 J0.125
G1 X25.7208 Y1.1864
G3 X25.5958 Y1.3114 I-0.125 J0
G1 X25.0122 Y1.3114
G1 X25.0122 Y5.6054
G3 X24.9497 Y5.7136 I-0.125 J0
G1 X19.0279 Y9.1326
G1 X19.0279 Y20.4056
G1 X24.9497 Y23.8245
G3 X25.0122 Y23.9327 I-0.0625 J0.1083
G1 X25.0122 Y28.2267
G1 X25.5958 Y28.2267
G3 X25.7208 Y28.3517 I0 J0.125
G1 X25.7208 Y29.5328
G3 X25.5958 Y29.6578 I-0.125 J0
G1 Z-0.28 F15
G1 X13.6194 Y29.6578 F16
G1 X12.9958 Y29.6578
G1 X0.0053 Y29.6578
G3 X-0.1197 Y29.5328 I0 J-0.125
G1 X-0.1197 Y28.3517
G3 X0.0053 Y28.2267 I0.125 J0
G1 X0.5889 Y28.2267
G1 X0.5889 Y23.9327
G3 X0.6514 Y23.8245 I0.125 J0
G1 X6.5732 Y20.4056
G1 X6.5732 Y15.0053
G3 X6.6982 Y14.8803 I0.125 J0
G1 X12.6756 Y14.8803
G1 X12.6756 Y14.6578
G1 X6.6982 Y14.6578
G3 X6.5732 Y14.5328 I0 J-0.125
G1 X6.5732 Y9.1326
G1 X0.6514 Y5.7136
G3 X0.5889 Y5.6054 I0.0625 J-0.1083
G1 X0.5889 Y1.3114
G1 X0.0053 Y1.3114
G3 X-0.1197 Y1.1864 I0 J-0.125
G1 X-0.1197 Y0.0053
G3 X0.0053 Y-0.1197 I0.125 J0
G1 X3.98 Y-0.1197
G1 X4.58 Y-0.1197
G1 X20.1626 Y-0.1197
G1 X20.8039 Y-0.1197
G1 X25.5958 Y-0.1197
G3 X25.7208 Y0.0053 I0 J0.125
G1 X25.7208 Y1.1864
G3 X25.5958 Y1.3114 I-0.125 J0
G1 X25.0122 Y1.3114
G1 X25.0122 Y5.6054
G3 X24.9497 Y5.7136 I-0.125 J0
G1 X19.0279 Y9.1326
G1 X19.0279 Y20.4056
G1 X24.9497 Y23.8245
G3 X25.0122 Y23.9327 I-0.0625 J0.1083
G1 X25.0122 Y28.2267
G1 X25.5958 Y28.2267
G3 X25.7208 Y28.3517 I0 J0.125
G1 X25.7208 Y29.5328
G3 X25.5958 Y29.6578 I-0.125 J0
G1 Z-0.42 F15
G1 X13.6194 Y29.6578 F16
G1 Z-0.28 F15
G1 X12.9958 Y29.6578 F16
G1 Z-0.42 F15
G1 X0.0053 Y29.6578 F16
G3 X-0.1197 Y29.5328 I0 J-0.125
G1 X-0.1197 Y28.3517
G3 X0.0053 Y28.2267 I0.125 J0
G1 X0.5889 Y28.2267
G1 X0.5889 Y23.9327
G3 X0.6514 Y23.8245 I0.125 J0
G1 X6.5732 Y20.4056
G1 X6.5732 Y15.0053
G3 X6.6982 Y14.8803 I0.125 J0
G1 X12.6756 Y14.8803
G1 X12.6756 Y14.6578
G1 X6.6982 Y14.6578
G3 X6.5732 Y14.5328 I0 J-0.125
G1 X6.5732 Y9.1326
G1 X0.6514 Y5.7136
G3 X0.5889 Y5.6054 I0.0625 J-0.1083
G1 X0.5889 Y1.3114
G1 X0.0053 Y1.3114
G3 X-0.1197 Y1.1864 I0 J-0.125
G1 X-0.1197 Y0.0053
G3 X0.0053 Y-0.1197 I0.125 J0
G1 X3.98 Y-0.1197
G1 Z-0.28 F15
G1 X4.58 Y-0.1197 F16
G1 Z-0.42 F15
G1 X20.1626 Y-0.1197 F16
G1 Z-0.28 F15
G1 X20.8039 Y-0.1197 F16
G1 Z-0.42 F15
G1 X25.5958 Y-0.1197 F16
G3 X25.7208 Y0.0053 I0 J0.125
G1 X25.7208 Y1.1864
G3 X25.5958 Y1.3114 I-0.125 J0
G1 X25.0122 Y1.3114
G1 X25.0122 Y5.6054
G3 X24.9497 Y5.7136 I-0.125 J0
G1 X19.0279 Y9.1326
G1 X19.0279 Y20.4056
G1 X24.9497 Y23.8245
G3 X25.0122 Y23.9327 I-0.0625 J0.1083
G1 X25.0122 Y28.2267
G1 X25.5958 Y28.2267
G3 X25.7208 Y28.3517 I0 J0.125
G1 X25.7208 Y29.5328
G3 X25.5958 Y29.6578 I-0.125 J0
G1 Z-0.56 F15
G1 X13.6194 Y29.6578 F16
G1 Z-0.28 F15
G1 X12.9958 Y29.6578 F16
G1 Z-0.56 F15
G1 X0.0053 Y29.6578 F16
G3 X-0.1197 Y29.5328 I0 J-0.125
G1 X-0.1197 Y28.3517
G3 X0.0053 Y28.2267 I0.125 J0
G1 X0.5889 Y28.2267
G1 X0.5889 Y23.9327
G3 X0.6514 Y23.8245 I0.125 J0
G1 X6.5732 Y20.4056
G1 X6.5732 Y15.0053
G3 X6.6982 Y14.8803 I0.125 J0
G1 X12.6756 Y14.8803
G1 X12.6756 Y14.6578
G1 X6.6982 Y14.6578
G3 X6.5732 Y14.5328 I0 J-0.125
G1 X6.5732 Y9.1326
G1 X0.6514 Y5.7136
G3 X0.5889 Y5.6054 I0.0625 J-0.1083
G1 X0.5889 Y1.3114
G1 X0.0053 Y1.3114
G3 X-0.1197 Y1.1864 I0 J-0.125
G1 X-0.1197 Y0.0053
G3 X0.0053 Y-0.1197 I0.125 J0
G1 X3.98 Y-0.1197
G1 Z-0.28 F15
G1 X4.58 Y-0.1197 F16
G1 Z-0.56 F15
G1 X20.1626 Y-0.1197 F16
G1 Z-0.28 F15
G1 X20.8039 Y-0.1197 F16
G1 Z-0.56 F15
G1 X25.5958 Y-0.1197 F16
G3 X25.7208 Y0.0053 I0 J0.125
G1 X25.7208 Y1.1864
G3 X25.5958 Y1.3114 I-0.125 J0
G1 X25.0122 Y1.3114
G1 X25.0122 Y5.6054
G3 X24.9497 Y5.7136 I-0.125 J0
G1 X19.0279 Y9.1326
G1 X19.0279 Y20.4056
G1 X24.9497 Y23.8245
G3 X25.0122 Y23.9327 I-0.0625 J0.1083
G1 X25.0122 Y28.2267
G1 X25.5958 Y28.2267
G3 X25.7208 Y28.3517 I0 J0.125
G1 X25.7208 Y29.5328
G3 X25.5958 Y29.6578 I-0.125 J0
G0 Z0.2
G0 X25.0122 Y20.563
G1 Z-0.14 F15
G1 X25.0122 Y21.8138 F16
G3 X24.8494 Y21.933 I-0.125 J0
G3 X23.7081 Y21.4721 I2.4168 J-7.629
G3 X22.7044 Y20.8681 I3.2178 J-6.4826
G3 X21.8112 Y20.11 I4.2215 J-5.8785
G3 X21.3666 Y19.6278 I5.6555 J-5.6619
G3 X21.0099 Y19.1757 I6.1002 J-5.1798
G3 X20.9957 Y19.1563 I6.4569 J-4.7277
G3 X20.3613 Y18.1296 I6.4711 J-4.7083
G3 X19.9083 Y17.0493 I6.4259 J-3.3295
G3 X19.6355 Y15.91 I6.8789 J-2.2491
G3 X19.5409 Y14.6828 I7.908 J-1.2272
G3 X19.6355 Y13.4556 I8.0027 J0
G3 X19.9083 Y12.3163 I7.1517 J1.1098
G3 X20.3613 Y11.2359 I6.8789 J2.2491
G3 X21.0099 Y10.1898 I7.1055 J3.6816
G3 X21.1518 Y10.0019 I6.4569 J4.7277
G3 X21.5377 Y9.5427 I6.315 J4.9156
G3 X21.8112 Y9.2556 I5.9291 J5.3748
G3 X22.7044 Y8.4975 I5.1146 J5.1204
G3 X23.7081 Y7.8934 I4.2215 J5.8785
G3 X24.8494 Y7.4325 I3.5581 J7.1682
G3 X25.0122 Y7.5517 I0.0377 J0.1192
G1 X25.0122 Y8.8025
G3 X24.932 Y8.9192 I-0.125 J0
G2 X24.0715 Y9.3246 I2.3224 J6.0453
G2 X23.3187 Y9.8296 I2.8962 J5.1318
G2 X22.6522 Y10.444 I3.649 J4.6269
G2 X22.0574 Y11.1863 I4.7428 J4.4097
G2 X21.5778 Y12.0078 I5.3376 J3.6673
G2 X21.2432 Y12.8503 I5.2931 J2.5895
G2 X21.0418 Y13.7341 I5.6277 J1.747
G2 X20.972 Y14.6828 I6.4062 J0.9486
G2 X21.0418 Y15.6314 I6.476 J0
G2 X21.2432 Y16.5153 I5.8291 J-0.8632
G2 X21.5778 Y17.3578 I5.6277 J-1.747
G2 X22.0574 Y18.1792 I5.8172 J-2.8459
G2 X22.6522 Y18.9215 I5.3376 J-3.6673
G2 X23.3187 Y19.5359 I4.3155 J-4.0124
G2 X24.0715 Y20.0409 I3.649 J-4.6269
G2 X24.932 Y20.4463 I3.1829 J-5.6399
G3 X25.0122 Y20.563 I-0.0448 J0.1167
G1 Z-0.28 F15
G1 X25.0122 Y21.8138 F16
G3 X24.8494 Y21.933 I-0.125 J0
G3 X23.7081 Y21.4721 I2.4168 J-7.629
G3 X22.7044 Y20.8681 I3.2178 J-6.4826
G3 X21.8112 Y20.11 I4.2215 J-5.8785
G3 X21.3666 Y19.6278 I5.6555 J-5.6619
G3 X21.0099 Y19.1757 I6.1002 J-5.1798
G3 X20.9957 Y19.1563 I6.4569 J-4.7277
G3 X20.3613 Y18.1296 I6.4711 J-4.7083
G3 X19.9083 Y17.0493 I6.4259 J-3.3295
G3 X19.6355 Y15.91 I6.8789 J-2.2491
G3 X19.5409 Y14.6828 I7.908 J-1.2272
G3 X19.6355 Y13.4556 I8.0027 J0
G3 X19.9083 Y12.3163 I7.1517 J1.1098
G3 X20.3613 Y11.2359 I6.8789 J2.2491
G3 X21.0099 Y10.1898 I7.1055 J3.6816
G3 X21.1518 Y10.0019 I6.4569 J4.7277
G3 X21.5377 Y9.5427 I6.315 J4.9156
G3 X21.8112 Y9.2556 I5.9291 J5.3748
G3 X22.7044 Y8.4975 I5.1146 J5.1204
G3 X23.7081 Y7.8934 I4.2215 J5.8785
G3 X24.8494 Y7.4325 I3.5581 J7.1682
G3 X25.0122 Y7.5517 I0.0377 J0.1192
G1 X25.0122 Y8.8025
G3 X24.932 Y8.9192 I-0.125 J0
G2 X24.0715 Y9.3246 I2.3224 J6.0453
G2 X23.3187 Y9.8296 I2.8962 J5.1318
G2 X22.6522 Y10.444 I3.649 J4.6269
G2 X22.0574 Y11.1863 I4.7428 J4.4097
G2 X21.5778 Y12.0078 I5.3376 J3.6673
G2 X21.2432 Y12.8503 I5.2931 J2.5895
G2 X21.0418 Y13.7341 I5.6277 J1.747
G2 X20.972 Y14.6828 I6.4062 J0.9486
G2 X21.0418 Y15.6314 I6.476 J0
G2 X21.2432 Y16.5153 I5.8291 J-0.8632
G2 X21.5778 Y17.3578 I5.6277 J-1.747
G2 X22.0574 Y18.1792 I5.8172 J-2.8459
G2 X22.6522 Y18.9215 I5.3376 J-3.6673
G2 X23.3187 Y19.5359 I4.3155 J-4.0124
G2 X24.0715 Y20.0409 I3.649 J-4.6269
G2 X24.932 Y20.4463 I3.1829 J-5.6399
G3 X25.0122 Y20.563 I-0.0448 J0.1167
G1 Z-0.42 F15
G1 X25.0122 Y21.8138 F16
G3 X24.8494 Y21.933 I-0.125 J0
G3 X23.7081 Y21.4721 I2.4168 J-7.629
G3 X22.7044 Y20.8681 I3.2178 J-6.4826
G3 X21.8112 Y20.11 I4.2215 J-5.8785
G3 X21.3666 Y19.6278 I5.6555 J-5.6619
G1 Z-0.28 F15
G3 X21.0099 Y19.1757 I6.1002 J-5.1798 F16
G3 X20.9957 Y19.1563 I6.4569 J-4.7277
G1 Z-0.42 F15
G3 X20.3613 Y18.1296 I6.4711 J-4.7083 F16
G3 X19.9083 Y17.0493 I6.4259 J-3.3295
G3 X19.6355 Y15.91 I6.8789 J-2.2491
G3 X19.5409 Y14.6828 I7.908 J-1.2272
G3 X19.6355 Y13.4556 I8.0027 J0
G3 X19.9083 Y12.3163 I7.1517 J1.1098
G3 X20.3613 Y11.2359 I6.8789 J2.2491
G3 X21.0099 Y10.1898 I7.1055 J3.6816
G3 X21.1518 Y10.0019 I6.4569 J4.7277
G1 Z-0.28 F15
G3 X21.5377 Y9.5427 I6.315 J4.9156 F16
G1 Z-0.42 F15
G3 X21.8112 Y9.2556 I5.9291 J5.3748 F16
G3 X22.7044 Y8.4975 I5.1146 J5.1204
G3 X23.7081 Y7.8934 I4.2215 J5.8785
G3 X24.8494 Y7.4325 I3.5581 J7.1682
G3 X25.0122 Y7.5517 I0.0377 J0.1192
G1 X25.0122 Y8.8025
G3 X24.932 Y8.9192 I-0.125 J0
G2 X24.0715 Y9.3246 I2.3224 J6.0453
G2 X23.3187 Y9.8296 I2.8962 J5.1318
G2 X22.6522 Y10.444 I3.649 J4.6269
G2 X22.0574 Y11.1863 I4.7428 J4.4097
G2 X21.5778 Y12.0078 I5.3376 J3.6673
G2 X21.2432 Y12.8503 I5.2931 J2.5895
G2 X21.0418 Y13.7341 I5.6277 J1.747
G2 X20.972 Y14.6828 I6.4062 J0.9486
G2 X21.0418 Y15.6314 I6.476 J0
G2 X21.2432 Y16.5153 I5.8291 J-0.8632
G2 X21.5778 Y17.3578 I5.6277 J-1.747
G2 X22.0574 Y18.1792 I5.8172 J-2.8459
G2 X22.6522 Y18.9215 I5.3376 J-3.6673
G2 X23.3187 Y19.5359 I4.3155 J-4.0124
G2 X24.0715 Y20.0409 I3.649 J-4.6269
G2 X24.932 Y20.4463 I3.1829 J-5.6399
G3 X25.0122 Y20.563 I-0.0448 J0.1167
G1 Z-0.56 F15
G1 X25.0122 Y21.8138 F16
G3 X24.8494 Y21.933 I-0.125 J0
G3 X23.7081 Y21.4721 I2.4168 J-7.629
G3 X22.7044 Y20.8681 I3.2178 J-6.4826
G3 X21.8112 Y20.11 I4.2215 J-5.8785
G3 X21.3666 Y19.6278 I5.6555 J-5.6619
G1 Z-0.28 F15
G3 X21.0099 Y19.1757 I6.1002 J-5.1798 F16
G3 X20.9957 Y19.1563 I6.4569 J-4.7277
G1 Z-0.56 F15
G3 X20.3613 Y18.1296 I6.4711 J-4.7083 F16
G3 X19.9083 Y17.0493 I6.4259 J-3.3295
G3 X19.6355 Y15.91 I6.8789 J-2.2491
G3 X19.5409 Y14.6828 I7.908 J-1.2272
G3 X19.6355 Y13.4556 I8.0027 J0
G3 X19.9083 Y12.3163 I7.1517 J1.1098
G3 X20.3613 Y11.2359 I6.8789 J2.2491
G3 X21.0099 Y10.1898 I7.1055 J3.6816
G3 X21.1518 Y10.0019 I6.4569 J4.7277
G1 Z-0.28 F15
G3 X21.5377 Y9.5427 I6.315 J4.9156 F16
G1 Z-0.56 F15
G3 X21.8112 Y9.2556 I5.9291 J5.3748 F16
G3 X22.7044 Y8.4975 I5.1146 J5.1204
G3 X23.7081 Y7.8934 I4.2215 J5.8785
G3 X24.8494 Y7.4325 I3.5581 J7.1682
G3 X25.0122 Y7.5517 I0.0377 J0.1192
G1 X25.0122 Y8.8025
G3 X24.932 Y8.9192 I-0.125 J0
G2 X24.0715 Y9.3246 I2.3224 J6.0453
G2 X23.3187 Y9.8296 I2.8962 J5.1318
G2 X22.6522 Y10.444 I3.649 J4.6269
G2 X22.0574 Y11.1863 I4.7428 J4.4097
G2 X21.5778 Y12.0078 I5.3376 J3.6673
G2 X21.2432 Y12.8503 I5.2931 J2.5895
G2 X21.0418 Y13.7341 I5.6277 J1.747
G2 X20.972 Y14.6828 I6.4062 J0.9486
G2 X21.0418 Y15.6314 I6.476 J0
G2 X21.2432 Y16.5153 I5.8291 J-0.8632
G2 X21.5778 Y17.3578 I5.6277 J-1.747
G2 X22.0574 Y18.1792 I5.8172 J-2.8459
G2 X22.6522 Y18.9215 I5.3376 J-3.6673
G2 X23.3187 Y19.5359 I4.3155 J-4.0124
G2 X24.0715 Y20.0409 I3.649 J-4.6269
G2 X24.932 Y20.4463 I3.1829 J-5.6399
G3 X25.0122 Y20.563 I-0.0448 J0.1167

(profile 2)
G0 Z0.2
G0 X12.8006 Y25.0206
G1 Z-0.14 F15
G3 X12.2958 Y24.9728 I0 J-2.6942 F16
G3 X12.2056 Y24.9537 I0.4267 J-2.2373
G3 X11.8509 Y24.8398 I0.5169 J-2.2182
G3 X11.4423 Y24.6193 I0.8716 J-2.1042
G3 X11.0516 Y24.2961 I1.5144 J-2.2283
G3 X10.7284 Y23.9054 I1.9051 J-1.9051
G3 X10.5079 Y23.4968 I1.8837 J-1.2802
G3 X10.3748 Y23.0519 I2.1042 J-0.8716
G3 X10.3271 Y22.5471 I2.6465 J-0.5048
G3 X10.3748 Y22.0423 I2.6942 J0
G3 X10.5079 Y21.5975 I2.2373 J0.4267
G3 X10.7284 Y21.1888 I2.1042 J0.8716
G3 X11.0516 Y20.7981 I2.2283 J1.5144
G3 X11.4423 Y20.4749 I1.9051 J1.9051
G3 X11.8509 Y20.2545 I1.2802 J1.8837
G3 X12.2958 Y20.1214 I0.8716 J2.1042
G3 X12.8006 Y20.0737 I0.5048 J2.6465
G3 X13.3054 Y20.1214 I0 J2.6942
G3 X13.7502 Y20.2545 I-0.4267 J2.2373
G3 X14.1588 Y20.4749 I-0.8716 J2.1042
G3 X14.5495 Y20.7981 I-1.5144 J2.2283
G3 X14.8727 Y21.1888 I-1.9051 J1.9051
G3 X15.0932 Y21.5975 I-1.8837 J1.2802
G3 X15.2263 Y22.0423 I-2.1042 J0.8716
G3 X15.274 Y22.5471 I-2.6465 J0.5048
G3 X15.2263 Y23.0519 I-2.6942 J0
G3 X15.0932 Y23.4968 I-2.2373 J-0.4267
G3 X14.8727 Y23.9054 I-2.1042 J-0.8716
G3 X14.5495 Y24.2961 I-2.2283 J-1.5144
G3 X14.1588 Y24.6193 I-1.9051 J-1.9051
G3 X13.7502 Y24.8398 I-1.2802 J-1.8837
G3 X13.3054 Y24.9728 I-0.8716 J-2.1042
G3 X12.8006 Y25.0206 I-0.5048 J-2.6465
G1 Z-0.28 F15
G3 X12.2958 Y24.9728 I0 J-2.6942 F16
G3 X12.2056 Y24.9537 I0.4267 J-2.2373
G3 X11.8509 Y24.8398 I0.5169 J-2.2182
G3 X11.4423 Y24.6193 I0.8716 J-2.1042
G3 X11.0516 Y24.2961 I1.5144 J-2.2283
G3 X10.7284 Y23.9054 I1.9051 J-1.9051
G3 X10.5079 Y23.4968 I1.8837 J-1.2802
G3 X10.3748 Y23.0519 I2.1042 J-0.8716
G3 X10.3271 Y22.5471 I2.6465 J-0.5048
G3 X10.3748 Y22.0423 I2.6942 J0
G3 X10.5079 Y21.5975 I2.2373 J0.4267
G3 X10.7284 Y21.1888 I2.1042 J0.8716
G3 X11.0516 Y20.7981 I2.2283 J1.5144
G3 X11.4423 Y20.4749 I1.9051 J1.9051
G3 X11.8509 Y20.2545 I1.2802 J1.8837
G3 X12.2958 Y20.1214 I0.8716 J2.1042
G3 X12.8006 Y20.0737 I0.5048 J2.6465
G3 X13.3054 Y20.1214 I0 J2.6942
G3 X13.7502 Y20.2545 I-0.4267 J2.2373
G3 X14.1588 Y20.4749 I-0.8716 J2.1042
G3 X14.5495 Y20.7981 I-1.5144 J2.2283
G3 X14.8727 Y21.1888 I-1.9051 J1.9051
G3 X15.0932 Y21.5975 I-1.8837 J1.2802
G3 X15.2263 Y22.0423 I-2.1042 J0.8716
G3 X15.274 Y22.5471 I-2.6465 J0.5048
G3 X15.2263 Y23.0519 I-2.6942 J0
G3 X15.0932 Y23.4968 I-2.2373 J-0.4267
G3 X14.8727 Y23.9054 I-2.1042 J-0.8716
G3 X14.5495 Y24.2961 I-2.2283 J-1.5144
G3 X14.1588 Y24.6193 I-1.9051 J-1.9051
G3 X13.7502 Y24.8398 I-1.2802 J-1.8837
G3 X13.3054 Y24.9728 I-0.8716 J-2.1042
G3 X12.8006 Y25.0206 I-0.5048 J-2.6465
G1 Z-0.42 F15
G1 Z-0.28 F15
G3 X12.2958 Y24.9728 I0 J-2.6942 F16
G3 X12.2056 Y24.9537 I0.4267 J-2.2373
G1 Z-0.42 F15
G3 X11.8509 Y24.8398 I0.5169 J-2.2182 F16
G3 X11.4423 Y24.6193 I0.8716 J-2.1042
G3 X11.0516 Y24.2961 I1.5144 J-2.2283
G3 X10.7284 Y23.9054 I1.9051 J-1.9051
G3 X10.5079 Y23.4968 I1.8837 J-1.2802
G3 X10.3748 Y23.0519 I2.1042 J-0.8716
G3 X10.3271 Y22.5471 I2.6465 J-0.5048
G3 X10.3748 Y22.0423 I2.6942 J0
G3 X10.5079 Y21.5975 I2.2373 J0.4267
G3 X10.7284 Y21.1888 I2.1042 J0.8716
G3 X11.0516 Y20.7981 I2.2283 J1.5144
G3 X11.4423 Y20.4749 I1.9051 J1.9051
G3 X11.8509 Y20.2545 I1.2802 J1.8837
G3 X12.2958 Y20.1214 I0.8716 J2.1042
G3 X12.8006 Y20.0737 I0.5048 J2.6465
G3 X13.3054 Y20.1214 I0 J2.6942
G3 X13.7502 Y20.2545 I-0.4267 J2.2373
G3 X14.1588 Y20.4749 I-0.8716 J2.1042
G3 X14.5495 Y20.7981 I-1.5144 J2.2283
G3 X14.8727 Y21.1888 I-1.9051 J1.9051
G3 X15.0932 Y21.5975 I-1.8837 J1.2802
G3 X15.2263 Y22.0423 I-2.1042 J0.8716
G3 X15.274 Y22.5471 I-2.6465 J0.5048
G3 X15.2263 Y23.0519 I-2.6942 J0
G3 X15.0932 Y23.4968 I-2.2373 J-0.4267
G3 X14.8727 Y23.9054 I-2.1042 J-0.8716
G3 X14.5495 Y24.2961 I-2.2283 J-1.5144
G3 X14.1588 Y24.6193 I-1.9051 J-1.9051
G3 X13.7502 Y24.8398 I-1.2802 J-1.8837
G3 X13.3054 Y24.9728 I-0.8716 J-2.1042
G3 X12.8006 Y25.0206 I-0.5048 J-2.6465
G1 Z-0.56 F15
G1 Z-0.28 F15
G3 X12.2958 Y24.9728 I0 J-2.6942 F16
G3 X12.2056 Y24.9537 I0.4267 J-2.2373
G1 Z-0.56 F15
G3 X11.8509 Y24.8398 I0.5169 J-2.2182 F16
G3 X11.4423 Y24.6193 I0.8716 J-2.1042
G3 X11.0516 Y24.2961 I1.5144 J-2.2283
G3 X10.7284 Y23.9054 I1.9051 J-1.9051
G3 X10.5079 Y23.4968 I1.8837 J-1.2802
G3 X10.3748 Y23.0519 I2.1042 J-0.8716
G3 X10.3271 Y22.5471 I2.6465 J-0.5048
G3 X10.3748 Y22.0423 I2.6942 J0
G3 X10.5079 Y21.5975 I2.2373 J0.4267
G3 X10.7284 Y21.1888 I2.1042 J0.8716
G3 X11.0516 Y20.7981 I2.2283 J1.5144
G3 X11.4423 Y20.4749 I1.9051 J1.9051
G3 X11.8509 Y20.2545 I1.2802 J1.8837
G3 X12.2958 Y20.1214 I0.8716 J2.1042
G3 X12.8006 Y20.0737 I0.5048 J2.6465
G3 X13.3054 Y20.1214 I0 J2.6942
G3 X13.7502 Y20.2545 I-0.4267 J2.2373
G3 X14.1588 Y20.4749 I-0.8716 J2.1042
G3 X14.5495 Y20.7981 I-1.5144 J2.2283
G3 X14.8727 Y21.1888 I-1.9051 J1.9051
G3 X15.0932 Y21.5975 I-1.8837 J1.2802
G3 X15.2263 Y22.0423 I-2.1042 J0.8716
G3 X15.274 Y22.5471 I-2.6465 J0.5048
G3 X15.2263 Y23.0519 I-2.6942 J0
G3 X15.0932 Y23.4968 I-2.2373 J-0.4267
G3 X14.8727 Y23.9054 I-2.1042 J-0.8716
G3 X14.5495 Y24.2961 I-2.2283 J-1.5144
G3 X14.1588 Y24.6193 I-1.9051 J-1.9051
G3 X13.7502 Y24.8398 I-1.2802 J-1.8837
G3 X13.3054 Y24.9728 I-0.8716 J-2.1042
G3 X12.8006 Y25.0206 I-0.5048 J-2.6465
G0 Z0.2
G0 X21.4371 Y25.2498
G1 Z-0.14 F15
G3 X21.4773 Y25.6746 I-2.2269 J0.4248 F16
G3 X21.4707 Y25.8471 I-2.267 J0
G3 X21.4371 Y26.0993 I-2.2605 J-0.1725
G3 X21.3253 Y26.4731 I-1.8797 J-0.3585
G3 X21.1401 Y26.8164 I-1.7679 J-0.7323
G3 X20.8681 Y27.1452 I-1.875 J-1.2743
G3 X20.5394 Y27.4171 I-1.603 J-1.603
G3 X20.1961 Y27.6024 I-1.0756 J-1.5827
G3 X19.8223 Y27.7141 I-0.7323 J-1.7679
G3 X19.3975 Y27.7543 I-0.4248 J-2.2269
G3 X18.9728 Y27.7141 I0 J-2.267
G3 X18.599 Y27.6024 I0.3585 J-1.8797
G3 X18.2557 Y27.4171 I0.7323 J-1.7679
G3 X17.927 Y27.1452 I1.2743 J-1.875
G3 X17.655 Y26.8164 I1.603 J-1.603
G3 X17.4697 Y26.4731 I1.5827 J-1.0756
G3 X17.358 Y26.0993 I1.7679 J-0.7323
G3 X17.3178 Y25.6746 I2.2269 J-0.4248
G3 X17.358 Y25.2498 I2.267 J0
G3 X17.4697 Y24.8761 I1.8797 J0.3585
G3 X17.655 Y24.5327 I1.7679 J0.7323
G3 X17.927 Y24.204 I1.875 J1.2743
G3 X18.2557 Y23.932 I1.603 J1.603
G3 X18.599 Y23.7468 I1.0756 J1.5827
G3 X18.9728 Y23.635 I0.7323 J1.7679
G3 X19.3975 Y23.5948 I0.4248 J2.2269
G3 X19.8223 Y23.635 I0 J2.267
G3 X20.1961 Y23.7468 I-0.3585 J1.8797
G3 X20.5394 Y23.932 I-0.7323 J1.7679
G3 X20.8681 Y24.204 I-1.2743 J1.875
G3 X21.1401 Y24.5327 I-1.603 J1.603
G3 X21.3253 Y24.8761 I-1.5827 J1.0756
G3 X21.4371 Y25.2498 I-1.7679 J0.7323
G1 Z-0.28 F15
G3 X21.4773 Y25.6746 I-2.2269 J0.4248 F16
G3 X21.4707 Y25.8471 I-2.267 J0
G3 X21.4371 Y26.0993 I-2.2605 J-0.1725
G3 X21.3253 Y26.4731 I-1.8797 J-0.3585
G3 X21.1401 Y26.8164 I-1.7679 J-0.7323
G3 X20.8681 Y27.1452 I-1.875 J-1.2743
G3 X20.5394 Y27.4171 I-1.603 J-1.603
G3 X20.1961 Y27.6024 I-1.0756 J-1.5827
G3 X19.8223 Y27.7141 I-0.7323 J-1.7679
G3 X19.3975 Y27.7543 I-0.4248 J-2.2269
G3 X18.9728 Y27.7141 I0 J-2.267
G3 X18.599 Y27.6024 I0.3585 J-1.8797
G3 X18.2557 Y27.4171 I0.7323 J-1.7679
G3 X17.927 Y27.1452 I1.2743 J-1.875
G3 X17.655 Y26.8164 I1.603 J-1.603
G3 X17.4697 Y26.4731 I1.5827 J-1.0756
G3 X17.358 Y26.0993 I1.7679 J-0.7323
G3 X17.3178 Y25.6746 I2.2269 J-0.4248
G3 X17.358 Y25.2498 I2.267 J0
G3 X17.4697 Y24.8761 I1.8797 J0.3585
G3 X17.655 Y24.5327 I1.7679 J0.7323
G3 X17.927 Y24.204 I1.875 J1.2743
G3 X18.2557 Y23.932 I1.603 J1.603
G3 X18.599 Y23.7468 I1.0756 J1.5827
G3 X18.9728 Y23.635 I0.7323 J1.7679
G3 X19.3975 Y23.5948 I0.4248 J2.2269
G3 X19.8223 Y23.635 I0 J2.267
G3 X20.1961 Y23.7468 I-0.3585 J1.8797
G3 X20.5394 Y23.932 I-0.7323 J1.7679
G3 X20.8681 Y24.204 I-1.2743 J1.875
G3 X21.1401 Y24.5327 I-1.603 J1.603
G3 X21.3253 Y24.8761 I-1.5827 J1.0756
G3 X21.4371 Y25.2498 I-1.7679 J0.7323
G1 Z-0.42 F15
G1 Z-0.28 F15
G3 X21.4773 Y25.6746 I-2.2269 J0.4248 F16
G3 X21.4707 Y25.8471 I-2.267 J0
G1 Z-0.42 F15
G3 X21.4371 Y26.0993 I-2.2605 J-0.1725 F16
G3 X21.3253 Y26.4731 I-1.8797 J-0.3585
G3 X21.1401 Y26.8164 I-1.7679 J-0.7323
G3 X20.8681 Y27.1452 I-1.875 J-1.2743
G3 X20.5394 Y27.4171 I-1.603 J-1.603
G3 X20.1961 Y27.6024 I-1.0756 J-1.5827
G3 X19.8223 Y27.7141 I-0.7323 J-1.7679
G3 X19.3975 Y27.7543 I-0.4248 J-2.2269
G3 X18.9728 Y27.7141 I0 J-2.267
G3 X18.599 Y27.6024 I0.3585 J-1.8797
G3 X18.2557 Y27.4171 I0.7323 J-1.7679
G3 X17.927 Y27.1452 I1.2743 J-1.875
G3 X17.655 Y26.8164 I1.603 J-1.603
G3 X17.4697 Y26.4731 I1.5827 J-1.0756
G3 X17.358 Y26.0993 I1.7679 J-0.7323
G3 X17.3178 Y25.6746 I2.2269 J-0.4248
G3 X17.358 Y25.2498 I2.267 J0
G3 X17.4697 Y24.8761 I1.8797 J0.3585
G3 X17.655 Y24.5327 I1.7679 J0.7323
G3 X17.927 Y24.204 I1.875 J1.2743
G3 X18.2557 Y23.932 I1.603 J1.603
G3 X18.599 Y23.7468 I1.0756 J1.5827
G3 X18.9728 Y23.635 I0.7323 J1.7679
G3 X19.3975 Y23.5948 I0.4248 J2.2269
G3 X19.8223 Y23.635 I0 J2.267
G3 X20.1961 Y23.7468 I-0.3585 J1.8797
G3 X20.5394 Y23.932 I-0.7323 J1.7679
G3 X20.8681 Y24.204 I-1.2743 J1.875
G3 X21.1401 Y24.5327 I-1.603 J1.603
G3 X21.3253 Y24.8761 I-1.5827 J1.0756
G3 X21.4371 Y25.2498 I-1.7679 J0.7323
G1 Z-0.56 F15
G1 Z-0.28 F15
G3 X21.4773 Y25.6746 I-2.2269 J0.4248 F16
G3 X21.4707 Y25.8471 I-2.267 J0
G1 Z-0.56 F15
G3 X21.4371 Y26.0993 I-2.2605 J-0.1725 F16
G3 X21.3253 Y26.4731 I-1.8797 J-0.3585
G3 X21.1401 Y26.8164 I-1.7679 J-0.7323
G3 X20.8681 Y27.1452 I-1.875 J-1.2743
G3 X20.5394 Y27.4171 I-1.603 J-1.603
G3 X20.1961 Y27.6024 I-1.0756 J-1.5827
G3 X19.8223 Y27.7141 I-0.7323 J-1.7679
G3 X19.3975 Y27.7543 I-0.4248 J-2.2269
G3 X18.9728 Y27.7141 I0 J-2.267
G3 X18.599 Y27.6024 I0.3585 J-1.8797
G3 X18.2557 Y27.4171 I0.7323 J-1.7679
G3 X17.927 Y27.1452 I1.2743 J-1.875
G3 X17.655 Y26.8164 I1.603 J-1.603
G3 X17.4697 Y26.4731 I1.5827 J-1.0756
G3 X17.358 Y26.0993 I1.7679 J-0.7323
G3 X17.3178 Y25.6746 I2.2269 J-0.4248
G3 X17.358 Y25.2498 I2.267 J0
G3 X17.4697 Y24.8761 I1.8797 J0.3585
G3 X17.655 Y24.5327 I1.7679 J0.7323
G3 X17.927 Y24.204 I1.875 J1.2743
G3 X18.2557 Y23.932 I1.603 J1.603
G3 X18.599 Y23.7468 I1.0756 J1.5827
G3 X18.9728 Y23.635 I0.7323 J1.7679
G3 X19.3975 Y23.5948 I0.4248 J2.2269
G3 X19.8223 Y23.635 I0 J2.267
G3 X20.1961 Y23.7468 I-0.3585 J1.8797
G3 X20.5394 Y23.932 I-0.7323 J1.7679
G3 X20.8681 Y24.204 I-1.2743 J1.875
G3 X21.1401 Y24.5327 I-1.603 J1.603
G3 X21.3253 Y24.8761 I-1.5827 J1.0756
G3 X21.4371 Y25.2498 I-1.7679 J0.7323
G0 Z0.2
G0 X5.0617 Y27.4171
G1 Z-0.14 F15
G3 X4.733 Y27.1452 I1.2743 J-1.875 F16
G3 X4.6156 Y27.0185 I1.603 J-1.603
G3 X4.461 Y26.8164 I1.7204 J-1.4764
G3 X4.2758 Y26.4731 I1.5827 J-1.0756
G3 X4.164 Y26.0993 I1.7679 J-0.7323
G3 X4.1239 Y25.6746 I2.2269 J-0.4248
G3 X4.164 Y25.2498 I2.267 J0
G3 X4.2758 Y24.8761 I1.8797 J0.3585
G3 X4.461 Y24.5327 I1.7679 J0.7323
G3 X4.733 Y24.204 I1.875 J1.2743
G3 X5.0617 Y23.932 I1.603 J1.603
G3 X5.4051 Y23.7468 I1.0756 J1.5827
G3 X5.7788 Y23.635 I0.7323 J1.7679
G3 X6.2036 Y23.5948 I0.4248 J2.2269
G3 X6.6283 Y23.635 I0 J2.267
G3 X7.0021 Y23.7468 I-0.3585 J1.8797
G3 X7.3454 Y23.932 I-0.7323 J1.7679
G3 X7.6742 Y24.204 I-1.2743 J1.875
G3 X7.9461 Y24.5327 I-1.603 J1.603
G3 X8.1314 Y24.8761 I-1.5827 J1.0756
G3 X8.2432 Y25.2498 I-1.7679 J0.7323
G3 X8.2833 Y25.6746 I-2.2269 J0.4248
G3 X8.2432 Y26.0993 I-2.267 J0
G3 X8.1314 Y26.4731 I-1.8797 J-0.3585
G3 X7.9461 Y26.8164 I-1.7679 J-0.7323
G3 X7.6742 Y27.1452 I-1.875 J-1.2743
G3 X7.3454 Y27.4171 I-1.603 J-1.603
G3 X7.0021 Y27.6024 I-1.0756 J-1.5827
G3 X6.6283 Y27.7141 I-0.7323 J-1.7679
G3 X6.2036 Y27.7543 I-0.4248 J-2.2269
G3 X5.7788 Y27.7141 I0 J-2.267
G3 X5.4051 Y27.6024 I0.3585 J-1.8797
G3 X5.0617 Y27.4171 I0.7323 J-1.7679
G1 Z-0.28 F15
G3 X4.733 Y27.1452 I1.2743 J-1.875 F16
G3 X4.6156 Y27.0185 I1.603 J-1.603
G3 X4.461 Y26.8164 I1.7204 J-1.4764
G3 X4.2758 Y26.4731 I1.5827 J-1.0756
G3 X4.164 Y26.0993 I1.7679 J-0.7323
G3 X4.1239 Y25.6746 I2.2269 J-0.4248
G3 X4.164 Y25.2498 I2.267 J0
G3 X4.2758 Y24.8761 I1.8797 J0.3585
G3 X4.461 Y24.5327 I1.7679 J0.7323
G3 X4.733 Y24.204 I1.875 J1.2743
G3 X5.0617 Y23.932 I1.603 J1.603
G3 X5.4051 Y23.7468 I1.0756 J1.5827
G3 X5.7788 Y23.635 I0.7323 J1.7679
G3 X6.2036 Y23.5948 I0.4248 J2.2269
G3 X6.6283 Y23.635 I0 J2.267
G3 X7.0021 Y23.7468 I-0.3585 J1.8797
G3 X7.3454 Y23.932 I-0.7323 J1.7679
G3 X7.6742 Y24.204 I-1.2743 J1.875
G3 X7.9461 Y24.5327 I-1.603 J1.603
G3 X8.1314 Y24.8761 I-1.5827 J1.0756
G3 X8.2432 Y25.2498 I-1.7679 J0.7323
G3 X8.2833 Y25.6746 I-2.2269 J0.4248
G3 X8.2432 Y26.0993 I-2.267 J0
G3 X8.1314 Y26.4731 I-1.8797 J-0.3585
G3 X7.9461 Y26.8164 I-1.7679 J-0.7323
G3 X7.6742 Y27.1452 I-1.875 J-1.2743
G3 X7.3454 Y27.4171 I-1.603 J-1.603
G3 X7.0021 Y27.6024 I-1.0756 J-1.5827
G3 X6.6283 Y27.7141 I-0.7323 J-1.7679
G3 X6.2036 Y27.7543 I-0.4248 J-2.2269
G3 X5.7788 Y27.7141 I0 J-2.267
G3 X5.4051 Y27.6024 I0.3585 J-1.8797
G3 X5.0617 Y27.4171 I0.7323 J-1.7679
G1 Z-0.42 F15
G1 Z-0.28 F15
G3 X4.733 Y27.1452 I1.2743 J-1.875 F16
G3 X4.6156 Y27.0185 I1.603 J-1.603
G1 Z-0.42 F15
G3 X4.461 Y26.8164 I1.7204 J-1.4764 F16
G3 X4.2758 Y26.4731 I1.5827 J-1.0756
G3 X4.164 Y26.0993 I1.7679 J-0.7323
G3 X4.1239 Y25.6746 I2.2269 J-0.4248
G3 X4.164 Y25.2498 I2.267 J0
G3 X4.2758 Y24.8761 I1.8797 J0.3585
G3 X4.461 Y24.5327 I1.7679 J0.7323
G3 X4.733 Y24.204 I1.875 J1.2743
G3 X5.0617 Y23.932 I1.603 J1.603
G3 X5.4051 Y23.7468 I1.0756 J1.5827
G3 X5.7788 Y23.635 I0.7323 J1.7679
G3 X6.2036 Y23.5948 I0.4248 J2.2269
G3 X6.6283 Y23.635 I0 J2.267
G3 X7.0021 Y23.7468 I-0.3585 J1.8797
G3 X7.3454 Y23.932 I-0.7323 J1.7679
G3 X7.6742 Y24.204 I-1.2743 J1.875
G3 X7.9461 Y24.5327 I-1.603 J1.603
G3 X8.1314 Y24.8761 I-1.5827 J1.0756
G3 X8.2432 Y25.2498 I-1.7679 J0.7323
G3 X8.2833 Y25.6746 I-2.2269 J0.4248
G3 X8.2432 Y26.0993 I-2.267 J0
G3 X8.1314 Y26.4731 I-1.8797 J-0.3585
G3 X7.9461 Y26.8164 I-1.7679 J-0.7323
G3 X7.6742 Y27.1452 I-1.875 J-1.2743
G3 X7.3454 Y27.4171 I-1.603 J-1.603
G3 X7.0021 Y27.6024 I-1.0756 J-1.5827
G3 X6.6283 Y27.7141 I-0.7323 J-1.7679
G3 X6.2036 Y27.7543 I-0.4248 J-2.2269
G3 X5.7788 Y27.7141 I0 J-2.267
G3 X5.4051 Y27.6024 I0.3585 J-1.8797
G3 X5.0617 Y27.4171 I0.7323 J-1.7679
G1 Z-0.56 F15
G1 Z-0.28 F15
G3 X4.733 Y27.1452 I1.2743 J-1.875 F16
G3 X4.6156 Y27.0185 I1.603 J-1.603
G1 Z-0.56 F15
G3 X4.461 Y26.8164 I1.7204 J-1.4764 F16
G3 X4.2758 Y26.4731 I1.5827 J-1.0756
G3 X4.164 Y26.0993 I1.7679 J-0.7323
G3 X4.1239 Y25.6746 I2.2269 J-0.4248
G3 X4.164 Y25.2498 I2.267 J0
G3 X4.2758 Y24.8761 I1.8797 J0.3585
G3 X4.461 Y24.5327 I1.7679 J0.7323
G3 X4.733 Y24.204 I1.875 J1.2743
G3 X5.0617 Y23.932 I1.603 J1.603
G3 X5.4051 Y23.7468 I1.0756 J1.5827
G3 X5.7788 Y23.635 I0.7323 J1.7679
G3 X6.2036 Y23.5948 I0.4248 J2.2269
G3 X6.6283 Y23.635 I0 J2.267
G3 X7.0021 Y23.7468 I-0.3585 J1.8797
G3 X7.3454 Y23.932 I-0.7323 J1.7679
G3 X7.6742 Y24.204 I-1.2743 J1.875
G3 X7.9461 Y24.5327 I-1.603 J1.603
G3 X8.1314 Y24.8761 I-1.5827 J1.0756
G3 X8.2432 Y25.2498 I-1.7679 J0.7323
G3 X8.2833 Y25.6746 I-2.2269 J0.4248
G3 X8.2432 Y26.0993 I-2.267 J0
G3 X8.1314 Y26.4731 I-1.8797 J-0.3585
G3 X7.9461 Y26.8164 I-1.7679 J-0.7323
G3 X7.6742 Y27.1452 I-1.875 J-1.2743
G3 X7.3454 Y27.4171 I-1.603 J-1.603
G3 X7.0021 Y27.6024 I-1.0756 J-1.5827
G3 X6.6283 Y27.7141 I-0.7323 J-1.7679
G3 X6.2036 Y27.7543 I-0.4248 J-2.2269
G3 X5.7788 Y27.7141 I0 J-2.267
G3 X5.4051 Y27.6024 I0.3585 J-1.8797
G3 X5.0617 Y27.4171 I0.7323 J-1.7679
G0 Z0.2
G0 X13.1987 Y9.434
G1 Z-0.14 F15
G3 X12.8005 Y9.4644 I-0.3971 J-2.5794 F16
G3 X12.6005 Y9.4568 I-0.001 J-2.6098
G3 X12.4024 Y9.434 I0.199 J-2.6022
G3 X12.0349 Y9.3467 I0.3571 J-2.3197
G3 X11.6862 Y9.2016 I0.7245 J-2.2324
G3 X11.3462 Y8.9924 I1.1934 J-2.321
G3 X11.042 Y8.7337 I1.5335 J-2.1118
G3 X10.7961 Y8.4471 I1.6526 J-1.6665
G3 X10.5993 Y8.1247 I1.8985 J-1.3798
G3 X10.4472 Y7.7555 I2.3299 J-1.1759
G3 X10.3532 Y7.3675 I2.482 J-0.8067
G3 X10.3228 Y6.991 I2.3166 J-0.3765
G3 X10.3532 Y6.6145 I2.347 J0
G3 X10.4472 Y6.2265 I2.576 J0.4186
G3 X10.5993 Y5.8573 I2.482 J0.8067
G3 X10.7961 Y5.5349 I2.0953 J1.0574
G3 X11.042 Y5.2483 I1.8985 J1.3798
G3 X11.3462 Y4.9896 I1.8377 J1.8531
G3 X11.6862 Y4.7804 I1.5335 J2.1118
G3 X12.0349 Y4.6353 I1.0732 J2.0872
G3 X12.4024 Y4.548 I0.7245 J2.2324
G3 X12.8006 Y4.5176 I0.3971 J2.5794
G3 X13.1987 Y4.548 I0.001 J2.6098
G3 X13.5662 Y4.6353 I-0.3571 J2.3197
G3 X13.9149 Y4.7804 I-0.7245 J2.2324
G3 X14.255 Y4.9896 I-1.1934 J2.321
G3 X14.5592 Y5.2483 I-1.5335 J2.1118
G3 X14.8051 Y5.5349 I-1.6526 J1.6665
G3 X15.0018 Y5.8573 I-1.8985 J1.3798
G3 X15.1539 Y6.2265 I-2.3299 J1.1759
G3 X15.2479 Y6.6145 I-2.482 J0.8067
G3 X15.2783 Y6.991 I-2.3166 J0.3765
G3 X15.2479 Y7.3675 I-2.347 J0
G3 X15.1539 Y7.7555 I-2.576 J-0.4186
G3 X15.0018 Y8.1247 I-2.482 J-0.8067
G3 X14.8051 Y8.4471 I-2.0953 J-1.0574
G3 X14.5592 Y8.7337 I-1.8985 J-1.3798
G3 X14.255 Y8.9924 I-1.8377 J-1.8531
G3 X13.9149 Y9.2016 I-1.5335 J-2.1118
G3 X13.5662 Y9.3467 I-1.0732 J-2.0872
G3 X13.1987 Y9.434 I-0.7245 J-2.2324
G1 Z-0.28 F15
G3 X12.8005 Y9.4644 I-0.3971 J-2.5794 F16
G3 X12.6005 Y9.4568 I-0.001 J-2.6098
G3 X12.4024 Y9.434 I0.199 J-2.6022
G3 X12.0349 Y9.3467 I0.3571 J-2.3197
G3 X11.6862 Y9.2016 I0.7245 J-2.2324
G3 X11.3462 Y8.9924 I1.1934 J-2.321
G3 X11.042 Y8.7337 I1.5335 J-2.1118
G3 X10.7961 Y8.4471 I1.6526 J-1.6665
G3 X10.5993 Y8.1247 I1.8985 J-1.3798
G3 X10.4472 Y7.7555 I2.3299 J-1.1759
G3 X10.3532 Y7.3675 I2.482 J-0.8067
G3 X10.3228 Y6.991 I2.3166 J-0.3765
G3 X10.3532 Y6.6145 I2.347 J0
G3 X10.4472 Y6.2265 I2.576 J0.4186
G3 X10.5993 Y5.8573 I2.482 J0.8067
G3 X10.7961 Y5.5349 I2.0953 J1.0574
G3 X11.042 Y5.2483 I1.8985 J1.3798
G3 X11.3462 Y4.9896 I1.8377 J1.8531
G3 X11.6862 Y4.7804 I1.5335 J2.1118
G3 X12.0349 Y4.6353 I1.0732 J2.0872
G3 X12.4024 Y4.548 I0.7245 J2.2324
G3 X12.8006 Y4.5176 I0.3971 J2.5794
G3 X13.1987 Y4.548 I0.001 J2.6098
G3 X13.5662 Y4.6353 I-0.3571 J2.3197
G3 X13.9149 Y4.7804 I-0.7245 J2.2324
G3 X14.255 Y4.9896 I-1.1934 J2.321
G3 X14.5592 Y5.2483 I-1.5335 J2.1118
G3 X14.8051 Y5.5349 I-1.6526 J1.6665
G3 X15.0018 Y5.8573 I-1.8985 J1.3798
G3 X15.1539 Y6.2265 I-2.3299 J1.1759
G3 X15.2479 Y6.6145 I-2.482 J0.8067
G3 X15.2783 Y6.991 I-2.3166 J0.3765
G3 X15.2479 Y7.3675 I-2.347 J0
G3 X15.1539 Y7.7555 I-2.576 J-0.4186
G3 X15.0018 Y8.1247 I-2.482 J-0.8067
G3 X14.8051 Y8.4471 I-2.0953 J-1.0574
G3 X14.5592 Y8.7337 I-1.8985 J-1.3798
G3 X14.255 Y8.9924 I-1.8377 J-1.8531
G3 X13.9149 Y9.2016 I-1.5335 J-2.1118
G3 X13.5662 Y9.3467 I-1.0732 J-2.0872
G3 X13.1987 Y9.434 I-0.7245 J-2.2324
G1 Z-0.42 F15
G1 Z-0.28 F15
G3 X12.8005 Y9.4644 I-0.3971 J-2.5794 F16
G3 X12.6005 Y9.4568 I-0.001 J-2.6098
G1 Z-0.42 F15
G3 X12.4024 Y9.434 I0.199 J-2.6022 F16
G3 X12.0349 Y9.3467 I0.3571 J-2.3197
G3 X11.6862 Y9.2016 I0.7245 J-2.2324
G3 X11.3462 Y8.9924 I1.1934 J-2.321
G3 X11.042 Y8.7337 I1.5335 J-2.1118
G3 X10.7961 Y8.4471 I1.6526 J-1.6665
G3 X10.5993 Y8.1247 I1.8985 J-1.3798
G3 X10.4472 Y7.7555 I2.3299 J-1.1759
G3 X10.3532 Y7.3675 I2.482 J-0.8067
G3 X10.3228 Y6.991 I2.3166 J-0.3765
G3 X10.3532 Y6.6145 I2.347 J0
G3 X10.4472 Y6.2265 I2.576 J0.4186
G3 X10.5993 Y5.8573 I2.482 J0.8067
G3 X10.7961 Y5.5349 I2.0953 J1.0574
G3 X11.042 Y5.2483 I1.8985 J1.3798
G3 X11.3462 Y4.9896 I1.8377 J1.8531
G3 X11.6862 Y4.7804 I1.5335 J2.1118
G3 X12.0349 Y4.6353 I1.0732 J2.0872
G3 X12.4024 Y4.548 I0.7245 J2.2324
G3 X12.8006 Y4.5176 I0.3971 J2.5794
G3 X13.1987 Y4.548 I0.001 J2.6098
G3 X13.5662 Y4.6353 I-0.3571 J2.3197
G3 X13.9149 Y4.7804 I-0.7245 J2.2324
G3 X14.255 Y4.9896 I-1.1934 J2.321
G3 X14.5592 Y5.2483 I-1.5335 J2.1118
G3 X14.8051 Y5.5349 I-1.6526 J1.6665
G3 X15.0018 Y5.8573 I-1.8985 J1.3798
G3 X15.1539 Y6.2265 I-2.3299 J1.1759
G3 X15.2479 Y6.6145 I-2.482 J0.8067
G3 X15.2783 Y6.991 I-2.3166 J0.3765
G3 X15.2479 Y7.3675 I-2.347 J0
G3 X15.1539 Y7.7555 I-2.576 J-0.4186
G3 X15.0018 Y8.1247 I-2.482 J-0.8067
G3 X14.8051 Y8.4471 I-2.0953 J-1.0574
G3 X14.5592 Y8.7337 I-1.8985 J-1.3798
G3 X14.255 Y8.9924 I-1.8377 J-1.8531
G3 X13.9149 Y9.2016 I-1.5335 J-2.1118
G3 X13.5662 Y9.3467 I-1.0732 J-2.0872
G3 X13.1987 Y9.434 I-0.7245 J-2.2324
G1 Z-0.56 F15
G1 Z-0.28 F15
G3 X12.8005 Y9.4644 I-0.3971 J-2.5794 F16
G3 X12.6005 Y9.4568 I-0.001 J-2.6098
G1 Z-0.56 F15
G3 X12.4024 Y9.434 I0.199 J-2.6022 F16
G3 X12.0349 Y9.3467 I0.3571 J-2.3197
G3 X11.6862 Y9.2016 I0.7245 J-2.2324
G3 X11.3462 Y8.9924 I1.1934 J-2.321
G3 X11.042 Y8.7337 I1.5335 J-2.1118
G3 X10.7961 Y8.4471 I1.6526 J-1.6665
G3 X10.5993 Y8.1247 I1.8985 J-1.3798
G3 X10.4472 Y7.7555 I2.3299 J-1.1759
G3 X10.3532 Y7.3675 I2.482 J-0.8067
G3 X10.3228 Y6.991 I2.3166 J-0.3765
G3 X10.3532 Y6.6145 I2.347 J0
G3 X10.4472 Y6.2265 I2.576 J0.4186
G3 X10.5993 Y5.8573 I2.482 J0.8067
G3 X10.7961 Y5.5349 I2.0953 J1.0574
G3 X11.042 Y5.2483 I1.8985 J1.3798
G3 X11.3462 Y4.9896 I1.8377 J1.8531
G3 X11.6862 Y4.7804 I1.5335 J2.1118
G3 X12.0349 Y4.6353 I1.0732 J2.0872
G3 X12.4024 Y4.548 I0.7245 J2.2324
G3 X12.8006 Y4.5176 I0.3971 J2.5794
G3 X13.1987 Y4.548 I0.001 J2.6098
G3 X13.5662 Y4.6353 I-0.3571 J2.3197
G3 X13.9149 Y4.7804 I-0.7245 J2.2324
G3 X14.255 Y4.9896 I-1.1934 J2.321
G3 X14.5592 Y5.2483 I-1.5335 J2.1118
G3 X14.8051 Y5.5349 I-1.6526 J1.6665
G3 X15.0018 Y5.8573 I-1.8985 J1.3798
G3 X15.1539 Y6.2265 I-2.3299 J1.1759
G3 X15.2479 Y6.6145 I-2.482 J0.8067
G3 X15.2783 Y6.991 I-2.3166 J0.3765
G3 X15.2479 Y7.3675 I-2.347 J0
G3 X15.1539 Y7.7555 I-2.576 J-0.4186
G3 X15.0018 Y8.1247 I-2.482 J-0.8067
G3 X14.8051 Y8.4471 I-2.0953 J-1.0574
G3 X14.5592 Y8.7337 I-1.8985 J-1.3798
G3 X14.255 Y8.9924 I-1.8377 J-1.8531
G3 X13.9149 Y9.2016 I-1.5335 J-2.1118
G3 X13.5662 Y9.3467 I-1.0732 J-2.0872
G3 X13.1987 Y9.434 I-0.7245 J-2.2324
G0 Z0.2
G0 X19.7324 Y5.9176
G1 Z-0.14 F15
G3 X19.3975 Y5.9433 I-0.3348 J-2.1697 F16
G3 X19.1343 Y5.9274 I0 J-2.1954
G3 X19.0627 Y5.9176 I0.2632 J-2.1795
G3 X18.754 Y5.8441 I0.3008 J-1.9494
G3 X18.4611 Y5.7221 I0.6095 J-1.876
G3 X18.1751 Y5.5461 I1.0044 J-1.9521
G3 X17.9193 Y5.3285 I1.2904 J-1.7761
G3 X17.7128 Y5.0876 I1.3892 J-1.4003
G3 X17.5475 Y4.8167 I1.5958 J-1.1594
G3 X17.4196 Y4.5062 I1.96 J-0.9889
G3 X17.3406 Y4.1799 I2.0879 J-0.6784
G3 X17.315 Y3.8636 I1.947 J-0.3163
G1 X17.315 Y3.8636
G3 X17.3406 Y3.5472 I1.9725 J0
G3 X17.4196 Y3.2209 I2.167 J0.352
G3 X17.5475 Y2.9104 I2.0879 J0.6784
G3 X17.7128 Y2.6395 I1.7611 J0.8885
G3 X17.9193 Y2.3986 I1.5958 J1.1594
G3 X18.1751 Y2.181 I1.5462 J1.5585
G3 X18.4611 Y2.005 I1.2904 J1.7761
G3 X18.754 Y1.883 I0.9025 J1.7539
G3 X19.0627 Y1.8095 I0.6095 J1.876
G3 X19.3975 Y1.7838 I0.3348 J2.1697
G3 X19.7324 Y1.8095 I0 J2.1954
G3 X20.0411 Y1.883 I-0.3008 J1.9494
G3 X20.334 Y2.005 I-0.6095 J1.876
G3 X20.62 Y2.181 I-1.0044 J1.9521
G3 X20.8757 Y2.3986 I-1.2904 J1.7761
G3 X21.0823 Y2.6395 I-1.3892 J1.4003
G3 X21.2476 Y2.9104 I-1.5958 J1.1594
G3 X21.3755 Y3.2209 I-1.96 J0.9889
G3 X21.4545 Y3.5472 I-2.0879 J0.6784
G3 X21.48 Y3.8636 I-1.947 J0.3163
G1 X21.48 Y3.8636
G3 X21.4545 Y4.1799 I-1.9725 J0
G3 X21.3755 Y4.5062 I-2.167 J-0.352
G3 X21.2476 Y4.8167 I-2.0879 J-0.6784
G3 X21.0823 Y5.0876 I-1.7611 J-0.8885
G3 X20.8757 Y5.3285 I-1.5958 J-1.1594
G3 X20.62 Y5.5461 I-1.5462 J-1.5585
G3 X20.334 Y5.7221 I-1.2904 J-1.7761
G3 X20.0411 Y5.8441 I-0.9025 J-1.7539
G3 X19.7324 Y5.9176 I-0.6095 J-1.876
G1 Z-0.28 F15
G3 X19.3975 Y5.9433 I-0.3348 J-2.1697 F16
G3 X19.1343 Y5.9274 I0 J-2.1954
G3 X19.0627 Y5.9176 I0.2632 J-2.1795
G3 X18.754 Y5.8441 I0.3008 J-1.9494
G3 X18.4611 Y5.7221 I0.6095 J-1.876
G3 X18.1751 Y5.5461 I1.0044 J-1.9521
G3 X17.9193 Y5.3285 I1.2904 J-1.7761
G3 X17.7128 Y5.0876 I1.3892 J-1.4003
G3 X17.5475 Y4.8167 I1.5958 J-1.1594
G3 X17.4196 Y4.5062 I1.96 J-0.9889
G3 X17.3406 Y4.1799 I2.0879 J-0.6784
G3 X17.315 Y3.8636 I1.947 J-0.3163
G1 X17.315 Y3.8636
G3 X17.3406 Y3.5472 I1.9725 J0
G3 X17.4196 Y3.2209 I2.167 J0.352
G3 X17.5475 Y2.9104 I2.0879 J0.6784
G3 X17.7128 Y2.6395 I1.7611 J0.8885
G3 X17.9193 Y2.3986 I1.5958 J1.1594
G3 X18.1751 Y2.181 I1.5462 J1.5585
G3 X18.4611 Y2.005 I1.2904 J1.7761
G3 X18.754 Y1.883 I0.9025 J1.7539
G3 X19.0627 Y1.8095 I0.6095 J1.876
G3 X19.3975 Y1.7838 I0.3348 J2.1697
G3 X19.7324 Y1.8095 I0 J2.1954
G3 X20.0411 Y1.883 I-0.3008 J1.9494
G3 X20.334 Y2.005 I-0.6095 J1.876
G3 X20.62 Y2.181 I-1.0044 J1.9521
G3 X20.8757 Y2.3986 I-1.2904 J1.7761
G3 X21.0823 Y2.6395 I-1.3892 J1.4003
G3 X21.2476 Y2.9104 I-1.5958 J1.1594
G3 X21.3755 Y3.2209 I-1.96 J0.9889
G3 X21.4545 Y3.5472 I-2.0879 J0.6784
G3 X21.48 Y3.8636 I-1.947 J0.3163
G1 X21.48 Y3.8636
G3 X21.4545 Y4.1799 I-1.9725 J0
G3 X21.3755 Y4.5062 I-2.167 J-0.352
G3 X21.2476 Y4.8167 I-2.0879 J-0.6784
G3 X21.0823 Y5.0876 I-1.7611 J-0.8885
G3 X20.8757 Y5.3285 I-1.5958 J-1.1594
G3 X20.62 Y5.5461 I-1.5462 J-1.5585
G3 X20.334 Y5.7221 I-1.2904 J-1.7761
G3 X20.0411 Y5.8441 I-0.9025 J-1.7539
G3 X19.7324 Y5.9176 I-0.6095 J-1.876
G1 Z-0.42 F15
G1 Z-0.28 F15
G3 X19.3975 Y5.9433 I-0.3348 J-2.1697 F16
G3 X19.1343 Y5.9274 I0 J-2.1954
G1 Z-0.42 F15
G3 X19.0627 Y5.9176 I0.2632 J-2.1795 F16
G3 X18.754 Y5.8441 I0.3008 J-1.9494
G3 X18.4611 Y5.7221 I0.6095 J-1.876
G3 X18.1751 Y5.5461 I1.0044 J-1.9521
G3 X17.9193 Y5.3285 I1.2904 J-1.7761
G3 X17.7128 Y5.0876 I1.3892 J-1.4003
G3 X17.5475 Y4.8167 I1.5958 J-1.1594
G3 X17.4196 Y4.5062 I1.96 J-0.9889
G3 X17.3406 Y4.1799 I2.0879 J-0.6784
G3 X17.315 Y3.8636 I1.947 J-0.3163
G1 X17.315 Y3.8636
G3 X17.3406 Y3.5472 I1.9725 J0
G3 X17.4196 Y3.2209 I2.167 J0.352
G3 X17.5475 Y2.9104 I2.0879 J0.6784
G3 X17.7128 Y2.6395 I1.7611 J0.8885
G3 X17.9193 Y2.3986 I1.5958 J1.1594
G3 X18.1751 Y2.181 I1.5462 J1.5585
G3 X18.4611 Y2.005 I1.2904 J1.7761
G3 X18.754 Y1.883 I0.9025 J1.7539
G3 X19.0627 Y1.8095 I0.6095 J1.876
G3 X19.3975 Y1.7838 I0.3348 J2.1697
G3 X19.7324 Y1.8095 I0 J2.1954
G3 X20.0411 Y1.883 I-0.3008 J1.9494
G3 X20.334 Y2.005 I-0.6095 J1.876
G3 X20.62 Y2.181 I-1.0044 J1.9521
G3 X20.8757 Y2.3986 I-1.2904 J1.7761
G3 X21.0823 Y2.6395 I-1.3892 J1.4003
G3 X21.2476 Y2.9104 I-1.5958 J1.1594
G3 X21.3755 Y3.2209 I-1.96 J0.9889
G3 X21.4545 Y3.5472 I-2.0879 J0.6784
G3 X21.48 Y3.8636 I-1.947 J0.3163
G1 X21.48 Y3.8636
G3 X21.4545 Y4.1799 I-1.9725 J0
G3 X21.3755 Y4.5062 I-2.167 J-0.352
G3 X21.2476 Y4.8167 I-2.0879 J-0.6784
G3 X21.0823 Y5.0876 I-1.7611 J-0.8885
G3 X20.8757 Y5.3285 I-1.5958 J-1.1594
G3 X20.62 Y5.5461 I-1.5462 J-1.5585
G3 X20.334 Y5.7221 I-1.2904 J-1.7761
G3 X20.0411 Y5.8441 I-0.9025 J-1.7539
G3 X19.7324 Y5.9176 I-0.6095 J-1.876
G1 Z-0.56 F15
G1 Z-0.28 F15
G3 X19.3975 Y5.9433 I-0.3348 J-2.1697 F16
G3 X19.1343 Y5.9274 I0 J-2.1954
G1 Z-0.56 F15
G3 X19.0627 Y5.9176 I0.2632 J-2.1795 F16
G3 X18.754 Y5.8441 I0.3008 J-1.9494
G3 X18.4611 Y5.7221 I0.6095 J-1.876
G3 X18.1751 Y5.5461 I1.0044 J-1.9521
G3 X17.9193 Y5.3285 I1.2904 J-1.7761
G3 X17.7128 Y5.0876 I1.3892 J-1.4003
G3 X17.5475 Y4.8167 I1.5958 J-1.1594
G3 X17.4196 Y4.5062 I1.96 J-0.9889
G3 X17.3406 Y4.1799 I2.0879 J-0.6784
G3 X17.315 Y3.8636 I1.947 J-0.3163
G1 X17.315 Y3.8636
G3 X17.3406 Y3.5472 I1.9725 J0
G3 X17.4196 Y3.2209 I2.167 J0.352
G3 X17.5475 Y2.9104 I2.0879 J0.6784
G3 X17.7128 Y2.6395 I1.7611 J0.8885
G3 X17.9193 Y2.3986 I1.5958 J1.1594
G3 X18.1751 Y2.181 I1.5462 J1.5585
G3 X18.4611 Y2.005 I1.2904 J1.7761
G3 X18.754 Y1.883 I0.9025 J1.7539
G3 X19.0627 Y1.8095 I0.6095 J1.876
G3 X19.3975 Y1.7838 I0.3348 J2.1697
G3 X19.7324 Y1.8095 I0 J2.1954
G3 X20.0411 Y1.883 I-0.3008 J1.9494
G3 X20.334 Y2.005 I-0.6095 J1.876
G3 X20.62 Y2.181 I-1.0044 J1.9521
G3 X20.8757 Y2.3986 I-1.2904 J1.7761
G3 X21.0823 Y2.6395 I-1.3892 J1.4003
G3 X21.2476 Y2.9104 I-1.5958 J1.1594
G3 X21.3755 Y3.2209 I-1.96 J0.9889
G3 X21.4545 Y3.5472 I-2.0879 J0.6784
G3 X21.48 Y3.8636 I-1.947 J0.3163
G1 X21.48 Y3.8636
G3 X21.4545 Y4.1799 I-1.9725 J0
G3 X21.3755 Y4.5062 I-2.167 J-0.352
G3 X21.2476 Y4.8167 I-2.0879 J-0.6784
G3 X21.0823 Y5.0876 I-1.7611 J-0.8885
G3 X20.8757 Y5.3285 I-1.5958 J-1.1594
G3 X20.62 Y5.5461 I-1.5462 J-1.5585
G3 X20.334 Y5.7221 I-1.2904 J-1.7761
G3 X20.0411 Y5.8441 I-0.9025 J-1.7539
G3 X19.7324 Y5.9176 I-0.6095 J-1.876
G0 Z0.2
G0 X6.5384 Y5.9176
G1 Z-0.14 F15
G3 X6.2036 Y5.9433 I-0.3348 J-2.1697 F16
G3 X5.9403 Y5.9274 I0 J-2.1954
G3 X5.8688 Y5.9176 I0.2632 J-2.1795
G3 X5.56 Y5.8441 I0.3008 J-1.9494
G3 X5.2671 Y5.7221 I0.6095 J-1.876
G3 X4.9811 Y5.5461 I1.0044 J-1.9521
G3 X4.7254 Y5.3285 I1.2904 J-1.7761
G3 X4.5188 Y5.0876 I1.3892 J-1.4003
G3 X4.3535 Y4.8167 I1.5958 J-1.1594
G3 X4.2256 Y4.5062 I1.96 J-0.9889
G3 X4.1466 Y4.1799 I2.0879 J-0.6784
G3 X4.1211 Y3.8636 I1.947 J-0.3163
G1 X4.1211 Y3.8636
G3 X4.1466 Y3.5472 I1.9725 J0
G3 X4.2256 Y3.2209 I2.167 J0.352
G3 X4.3535 Y2.9104 I2.0879 J0.6784
G3 X4.5188 Y2.6395 I1.7611 J0.8885
G3 X4.7254 Y2.3986 I1.5958 J1.1594
G3 X4.9811 Y2.181 I1.5462 J1.5585
G3 X5.2671 Y2.005 I1.2904 J1.7761
G3 X5.56 Y1.883 I0.9025 J1.7539
G3 X5.8688 Y1.8095 I0.6095 J1.876
G3 X6.2036 Y1.7838 I0.3348 J2.1697
G3 X6.5384 Y1.8095 I0 J2.1954
G3 X6.8471 Y1.883 I-0.3008 J1.9494
G3 X7.14 Y2.005 I-0.6095 J1.876
G3 X7.426 Y2.181 I-1.0044 J1.9521
G3 X7.6818 Y2.3986 I-1.2904 J1.7761
G3 X7.8884 Y2.6395 I-1.3892 J1.4003
G3 X8.0536 Y2.9104 I-1.5958 J1.1594
G3 X8.1815 Y3.2209 I-1.96 J0.9889
G3 X8.2606 Y3.5472 I-2.0879 J0.6784
G3 X8.2861 Y3.8636 I-1.947 J0.3163
G1 X8.2861 Y3.8636
G3 X8.2606 Y4.1799 I-1.9725 J0
G3 X8.1815 Y4.5062 I-2.167 J-0.352
G3 X8.0536 Y4.8167 I-2.0879 J-0.6784
G3 X7.8884 Y5.0876 I-1.7611 J-0.8885
G3 X7.6818 Y5.3285 I-1.5958 J-1.1594
G3 X7.426 Y5.5461 I-1.5462 J-1.5585
G3 X7.14 Y5.7221 I-1.2904 J-1.7761
G3 X6.8471 Y5.8441 I-0.9025 J-1.7539
G3 X6.5384 Y5.9176 I-0.6095 J-1.876
G1 Z-0.28 F15
G3 X6.2036 Y5.9433 I-0.3348 J-2.1697 F16
G3 X5.9403 Y5.9274 I0 J-2.1954
G3 X5.8688 Y5.9176 I0.2632 J-2.1795
G3 X5.56 Y5.8441 I0.3008 J-1.9494
G3 X5.2671 Y5.7221 I0.6095 J-1.876
G3 X4.9811 Y5.5461 I1.0044 J-1.9521
G3 X4.7254 Y5.3285 I1.2904 J-1.7761
G3 X4.5188 Y5.0876 I1.3892 J-1.4003
G3 X4.3535 Y4.8167 I1.5958 J-1.1594
G3 X4.2256 Y4.5062 I1.96 J-0.9889
G3 X4.1466 Y4.1799 I2.0879 J-0.6784
G3 X4.1211 Y3.8636 I1.947 J-0.3163
G1 X4.1211 Y3.8636
G3 X4.1466 Y3.5472 I1.9725 J0
G3 X4.2256 Y3.2209 I2.167 J0.352
G3 X4.3535 Y2.9104 I2.0879 J0.6784
G3 X4.5188 Y2.6395 I1.7611 J0.8885
G3 X4.7254 Y2.3986 I1.5958 J1.1594
G3 X4.9811 Y2.181 I1.5462 J1.5585
G3 X5.2671 Y2.005 I1.2904 J1.7761
G3 X5.56 Y1.883 I0.9025 J1.7539
G3 X5.8688 Y1.8095 I0.6095 J1.876
G3 X6.2036 Y1.7838 I0.3348 J2.1697
G3 X6.5384 Y1.8095 I0 J2.1954
G3 X6.8471 Y1.883 I-0.3008 J1.9494
G3 X7.14 Y2.005 I-0.6095 J1.876
G3 X7.426 Y2.181 I-1.0044 J1.9521
G3 X7.6818 Y2.3986 I-1.2904 J1.7761
G3 X7.8884 Y2.6395 I-1.3892 J1.4003
G3 X8.0536 Y2.9104 I-1.5958 J1.1594
G3 X8.1815 Y3.2209 I-1.96 J0.9889
G3 X8.2606 Y3.5472 I-2.0879 J0.6784
G3 X8.2861 Y3.8636 I-1.947 J0.3163
G1 X8.2861 Y3.8636
G3 X8.2606 Y4.1799 I-1.9725 J0
G3 X8.1815 Y4.5062 I-2.167 J-0.352
G3 X8.0536 Y4.8167 I-2.0879 J-0.6784
G3 X7.8884 Y5.0876 I-1.7611 J-0.8885
G3 X7.6818 Y5.3285 I-1.5958 J-1.1594
G3 X7.426 Y5.5461 I-1.5462 J-1.5585
G3 X7.14 Y5.7221 I-1.2904 J-1.7761
G3 X6.8471 Y5.8441 I-0.9025 J-1.7539
G3 X6.5384 Y5.9176 I-0.6095 J-1.876
G1 Z-0.42 F15
G1 Z-0.28 F15
G3 X6.2036 Y5.9433 I-0.3348 J-2.1697 F16
G3 X5.9403 Y5.9274 I0 J-2.1954
G1 Z-0.42 F15
G3 X5.8688 Y5.9176 I0.2632 J-2.1795 F16
G3 X5.56 Y5.8441 I0.3008 J-1.9494
G3 X5.2671 Y5.7221 I0.6095 J-1.876
G3 X4.9811 Y5.5461 I1.0044 J-1.9521
G3 X4.7254 Y5.3285 I1.2904 J-1.7761
G3 X4.5188 Y5.0876 I1.3892 J-1.4003
G3 X4.3535 Y4.8167 I1.5958 J-1.1594
G3 X4.2256 Y4.5062 I1.96 J-0.9889
G3 X4.1466 Y4.1799 I2.0879 J-0.6784
G3 X4.1211 Y3.8636 I1.947 J-0.3163
G1 X4.1211 Y3.8636
G3 X4.1466 Y3.5472 I1.9725 J0
G3 X4.2256 Y3.2209 I2.167 J0.352
G3 X4.3535 Y2.9104 I2.0879 J0.6784
G3 X4.5188 Y2.6395 I1.7611 J0.8885
G3 X4.7254 Y2.3986 I1.5958 J1.1594
G3 X4.9811 Y2.181 I1.5462 J1.5585
G3 X5.2671 Y2.005 I1.2904 J1.7761
G3 X5.56 Y1.883 I0.9025 J1.7539
G3 X5.8688 Y1.8095 I0.6095 J1.876
G3 X6.2036 Y1.7838 I0.3348 J2.1697
G3 X6.5384 Y1.8095 I0 J2.1954
G3 X6.8471 Y1.883 I-0.3008 J1.9494
G3 X7.14 Y2.005 I-0.6095 J1.876
G3 X7.426 Y2.181 I-1.0044 J1.9521
G3 X7.6818 Y2.3986 I-1.2904 J1.7761
G3 X7.8884 Y2.6395 I-1.3892 J1.4003
G3 X8.0536 Y2.9104 I-1.5958 J1.1594
G3 X8.1815 Y3.2209 I-1.96 J0.9889
G3 X8.2606 Y3.5472 I-2.0879 J0.6784
G3 X8.2861 Y3.8636 I-1.947 J0.3163
G1 X8.2861 Y3.8636
G3 X8.2606 Y4.1799 I-1.9725 J0
G3 X8.1815 Y4.5062 I-2.167 J-0.352
G3 X8.0536 Y4.8167 I-2.0879 J-0.6784
G3 X7.8884 Y5.0876 I-1.7611 J-0.8885
G3 X7.6818 Y5.3285 I-1.5958 J-1.1594
G3 X7.426 Y5.5461 I-1.5462 J-1.5585
G3 X7.14 Y5.7221 I-1.2904 J-1.7761
G3 X6.8471 Y5.8441 I-0.9025 J-1.7539
G3 X6.5384 Y5.9176 I-0.6095 J-1.876
G1 Z-0.56 F15
G1 Z-0.28 F15
G3 X6.2036 Y5.9433 I-0.3348 J-2.1697 F16
G3 X5.9403 Y5.9274 I0 J-2.1954
G1 Z-0.56 F15
G3 X5.8688 Y5.9176 I0.2632 J-2.1795 F16
G3 X5.56 Y5.8441 I0.3008 J-1.9494
G3 X5.2671 Y5.7221 I0.6095 J-1.876
G3 X4.9811 Y5.5461 I1.0044 J-1.9521
G3 X4.7254 Y5.3285 I1.2904 J-1.7761
G3 X4.5188 Y5.0876 I1.3892 J-1.4003
G3 X4.3535 Y4.8167 I1.5958 J-1.1594
G3 X4.2256 Y4.5062 I1.96 J-0.9889
G3 X4.1466 Y4.1799 I2.0879 J-0.6784
G3 X4.1211 Y3.8636 I1.947 J-0.3163
G1 X4.1211 Y3.8636
G3 X4.1466 Y3.5472 I1.9725 J0
G3 X4.2256 Y3.2209 I2.167 J0.352
G3 X4.3535 Y2.9104 I2.0879 J0.6784
G3 X4.5188 Y2.6395 I1.7611 J0.8885
G3 X4.7254 Y2.3986 I1.5958 J1.1594
G3 X4.9811 Y2.181 I1.5462 J1.5585
G3 X5.2671 Y2.005 I1.2904 J1.7761
G3 X5.56 Y1.883 I0.9025 J1.7539
G3 X5.8688 Y1.8095 I0.6095 J1.876
G3 X6.2036 Y1.7838 I0.3348 J2.1697
G3 X6.5384 Y1.8095 I0 J2.1954
G3 X6.8471 Y1.883 I-0.3008 J1.9494
G3 X7.14 Y2.005 I-0.6095 J1.876
G3 X7.426 Y2.181 I-1.0044 J1.9521
G3 X7.6818 Y2.3986 I-1.2904 J1.7761
G3 X7.8884 Y2.6395 I-1.3892 J1.4003
G3 X8.0536 Y2.9104 I-1.5958 J1.1594
G3 X8.1815 Y3.2209 I-1.96 J0.9889
G3 X8.2606 Y3.5472 I-2.0879 J0.6784
G3 X8.2861 Y3.8636 I-1.947 J0.3163
G1 X8.2861 Y3.8636
G3 X8.2606 Y4.1799 I-1.9725 J0
G3 X8.1815 Y4.5062 I-2.167 J-0.352
G3 X8.0536 Y4.8167 I-2.0879 J-0.6784
G3 X7.8884 Y5.0876 I-1.7611 J-0.8885
G3 X7.6818 Y5.3285 I-1.5958 J-1.1594
G3 X7.426 Y5.5461 I-1.5462 J-1.5585
G3 X7.14 Y5.7221 I-1.2904 J-1.7761
G3 X6.8471 Y5.8441 I-0.9025 J-1.7539
G3 X6.5384 Y5.9176 I-0.6095 J-1.876
G0 Z0.2
M5
M30
